;FLAVOR:Marlin
;TIME:9933
;Filament used: 7.30151m
;Layer height: 0.2
;MINX:76.5
;MINY:74
;MINZ:0.2
;MAXX:143.5
;MAXY:146
;MAXZ:60
;Generated with Cura_SteamEngine 5.3.1
M82 ;absolute extrusion mode
; Ender 3 Custom Start G-code
G92 E0 ; Reset Extruder
G28 ; Home all axes
M104 S175 ; Start heating up the nozzle most of the way
M190 S60 ; Start heating the bed, wait until target temperature reached
M109 S200 ; Finish heating the nozzle
G1 Z2.0 F3000 ; Move Z Axis up little to prevent scratching of Heat Bed
G1 X0.1 Y20 Z0.3 F5000.0 ; Move to start position
G1 X0.1 Y200.0 Z0.3 F1500.0 E15 ; Draw the first line
G1 X0.4 Y200.0 Z0.3 F5000.0 ; Move to side a little
G1 X0.4 Y20 Z0.3 F1500.0 E30 ; Draw the second line
G92 E0 ; Reset Extruder
G1 Z2.0 F3000 ; Move Z Axis up little to prevent scratching of Heat Bed
G1 X5 Y20 Z0.3 F5000.0 ; Move over to prevent blob squish
G92 E0
G92 E0
G1 F1500 E-6.5
;LAYER_COUNT:300
;LAYER:0
M107
G0 F6000 X80.481 Y77.617 Z0.2
;TYPE:SKIRT
G1 F1500 E0
G1 F1200 X81.162 Y77.024 E0.03003
G1 X81.894 Y76.494 E0.06009
G1 X82.669 Y76.031 E0.09012
G1 X83.482 Y75.638 E0.12015
G1 X84.327 Y75.318 E0.1502
G1 X85.196 Y75.075 E0.18022
G1 X86.084 Y74.909 E0.21026
G1 X87.223 Y74.813 E0.24828
G1 X87.83 Y74.8 E0.26847
G1 X131.793 Y74.8 E1.73069
G1 X132.637 Y74.811 E1.75876
G1 X133.539 Y74.864 E1.78882
G1 X134.432 Y74.996 E1.81884
G1 X135.31 Y75.207 E1.84887
G1 X136.166 Y75.495 E1.87891
G1 X136.993 Y75.857 E1.90894
G1 X137.785 Y76.292 E1.93899
G1 X138.536 Y76.794 E1.96904
G1 X139.239 Y77.361 E1.99908
G1 X139.889 Y77.988 E2.02911
G1 X140.481 Y78.67 E2.05915
G1 X141.011 Y79.401 E2.08918
G1 X141.473 Y80.177 E2.11922
G1 X141.866 Y80.99 E2.14925
G1 X142.184 Y81.835 E2.17928
G1 X142.427 Y82.705 E2.20933
G1 X142.592 Y83.593 E2.23937
G1 X142.687 Y84.723 E2.27708
G1 X142.7 Y85.33 E2.29728
G1 X142.699 Y134.39 E3.92902
G1 X142.69 Y135.117 E3.9532
G1 X142.639 Y136.019 E3.98325
G1 X142.508 Y136.913 E4.0133
G1 X142.299 Y137.791 E4.04332
G1 X142.013 Y138.648 E4.07337
G1 X141.652 Y139.476 E4.10341
G1 X141.22 Y140.268 E4.13342
G1 X140.719 Y141.02 E4.16347
G1 X140.153 Y141.724 E4.19352
G1 X139.528 Y142.375 E4.22353
G1 X138.847 Y142.969 E4.25359
G1 X138.116 Y143.5 E4.28364
G1 X137.342 Y143.964 E4.31366
G1 X136.529 Y144.358 E4.3437
G1 X135.685 Y144.678 E4.37373
G1 X134.815 Y144.923 E4.40379
G1 X133.928 Y145.089 E4.4338
G1 X132.777 Y145.187 E4.47222
G1 X132.17 Y145.2 E4.49242
G1 X88.075 Y145.199 E5.95902
G1 X87.377 Y145.19 E5.98224
G1 X86.476 Y145.139 E6.01225
G1 X85.582 Y145.007 E6.04231
G1 X84.704 Y144.798 E6.07233
G1 X83.847 Y144.511 E6.10239
G1 X83.02 Y144.15 E6.1324
G1 X82.227 Y143.717 E6.16245
G1 X81.476 Y143.216 E6.19248
G1 X80.772 Y142.65 E6.22252
G1 X80.121 Y142.024 E6.25256
G1 X79.528 Y141.343 E6.2826
G1 X78.998 Y140.612 E6.31263
G1 X78.534 Y139.837 E6.34267
G1 X78.14 Y139.024 E6.37272
G1 X77.82 Y138.18 E6.40274
G1 X77.576 Y137.31 E6.43279
G1 X77.41 Y136.422 E6.46284
G1 X77.313 Y135.267 E6.50139
G1 X77.3 Y134.658 E6.52165
G1 X77.301 Y85.536 E8.15546
G1 X77.31 Y84.871 E8.17758
G1 X77.362 Y83.969 E8.20763
G1 X77.494 Y83.076 E8.23765
G1 X77.704 Y82.198 E8.26768
G1 X77.991 Y81.341 E8.29774
G1 X78.353 Y80.514 E8.32776
G1 X78.786 Y79.722 E8.35778
G1 X79.288 Y78.971 E8.38783
G1 X79.855 Y78.267 E8.41789
G1 X80.481 Y77.617 E8.44791
G0 F6000 X80.218 Y77.315
G1 F1200 X80.899 Y76.722 E8.47794
G1 X81.659 Y76.17 E8.50918
G1 X82.495 Y75.671 E8.54157
G1 X83.34 Y75.264 E8.57276
G1 X84.185 Y74.944 E8.60281
G1 X85.122 Y74.682 E8.63517
G1 X86.05 Y74.51 E8.66656
G1 X87.189 Y74.414 E8.70458
G1 X87.821 Y74.4 E8.72561
G1 X131.798 Y74.4 E10.18829
G1 X132.66 Y74.412 E10.21696
G1 X133.597 Y74.468 E10.24818
G1 X134.49 Y74.6 E10.27821
G1 X135.438 Y74.828 E10.31064
G1 X136.294 Y75.116 E10.34067
G1 X137.186 Y75.506 E10.37305
G1 X137.978 Y75.941 E10.40311
G1 X138.758 Y76.461 E10.43429
G1 X139.517 Y77.073 E10.46672
G1 X140.167 Y77.7 E10.49675
G1 X140.805 Y78.435 E10.52913
G1 X141.355 Y79.196 E10.56036
G1 X141.817 Y79.972 E10.59039
G1 X142.24 Y80.849 E10.62278
G1 X142.569 Y81.727 E10.65396
G1 X142.82 Y82.632 E10.6852
G1 X142.991 Y83.559 E10.71655
G1 X143.086 Y84.689 E10.75427
G1 X143.1 Y85.33 E10.77559
G1 X143.099 Y134.395 E12.4075
G1 X143.089 Y135.14 E12.43228
G1 X143.035 Y136.077 E12.4635
G1 X142.904 Y136.971 E12.49355
G1 X142.688 Y137.884 E12.52476
G1 X142.38 Y138.808 E12.55715
G1 X142.019 Y139.636 E12.58719
G1 X141.553 Y140.49 E12.61955
G1 X141.031 Y141.271 E12.6508
G1 X140.465 Y141.975 E12.68084
G1 X139.817 Y142.652 E12.71201
G1 X139.082 Y143.293 E12.74445
G1 X138.351 Y143.824 E12.7745
G1 X137.548 Y144.307 E12.80566
G1 X136.671 Y144.732 E12.83808
G1 X135.827 Y145.052 E12.8681
G1 X134.889 Y145.316 E12.90051
G1 X133.962 Y145.488 E12.93187
G1 X132.811 Y145.586 E12.97029
G1 X132.17 Y145.6 E12.99161
G1 X88.07 Y145.599 E14.45839
G1 X87.354 Y145.589 E14.4822
G1 X86.418 Y145.535 E14.51339
G1 X85.524 Y145.403 E14.54344
G1 X84.611 Y145.187 E14.57465
G1 X83.687 Y144.878 E14.60705
G1 X82.86 Y144.517 E14.63707
G1 X82.005 Y144.05 E14.66947
G1 X81.225 Y143.528 E14.70068
G1 X80.521 Y142.962 E14.73073
G1 X79.819 Y142.287 E14.76312
G1 X79.226 Y141.606 E14.79315
G1 X78.674 Y140.847 E14.82437
G1 X78.174 Y140.011 E14.85677
G1 X77.766 Y139.166 E14.88798
G1 X77.446 Y138.322 E14.918
G1 X77.183 Y137.384 E14.9504
G1 X77.011 Y136.455 E14.98182
G1 X76.913 Y135.276 E15.02117
G1 X76.9 Y134.658 E15.04173
G1 X76.901 Y85.531 E16.6757
G1 X76.911 Y84.848 E16.69842
G1 X76.966 Y83.911 E16.72964
G1 X77.098 Y83.018 E16.75966
G1 X77.315 Y82.105 E16.79088
G1 X77.612 Y81.214 E16.82211
G1 X78.002 Y80.322 E16.85449
G1 X78.453 Y79.5 E16.88568
G1 X78.976 Y78.72 E16.91691
G1 X79.543 Y78.016 E16.94698
G1 X80.218 Y77.315 E16.97935
G0 F6000 X79.955 Y77.013
G1 F1200 X80.636 Y76.42 E17.00938
G1 X81.424 Y75.846 E17.0418
G1 X82.321 Y75.311 E17.07654
G1 X83.198 Y74.89 E17.1089
G1 X84.043 Y74.57 E17.13895
G1 X85.049 Y74.289 E17.17369
G1 X86.016 Y74.111 E17.20639
G1 X87.155 Y74.015 E17.24441
G1 X87.812 Y74 E17.26627
G1 X131.804 Y74 E18.72945
G1 X132.684 Y74.013 E18.75872
G1 X133.655 Y74.072 E18.79108
G1 X134.584 Y74.211 E18.82232
G1 X135.532 Y74.439 E18.85475
G1 X136.454 Y74.749 E18.8871
G1 X137.379 Y75.155 E18.9207
G1 X138.171 Y75.59 E18.95075
G1 X138.98 Y76.128 E18.98307
G1 X139.795 Y76.785 E19.01789
G1 X140.445 Y77.412 E19.04792
G1 X141.107 Y78.173 E19.08147
G1 X141.699 Y78.991 E19.11506
G1 X142.161 Y79.767 E19.14509
G1 X142.615 Y80.709 E19.17987
G1 X142.944 Y81.587 E19.21106
G1 X143.213 Y82.559 E19.2446
G1 X143.39 Y83.525 E19.27727
G1 X143.485 Y84.655 E19.31498
G1 X143.5 Y85.33 E19.33744
G1 X143.499 Y134.4 E20.96952
G1 X143.488 Y135.163 E20.9949
G1 X143.431 Y136.135 E21.02728
G1 X143.3 Y137.029 E21.05733
G1 X143.077 Y137.976 E21.08969
G1 X142.747 Y138.968 E21.12446
G1 X142.386 Y139.796 E21.15451
G1 X141.886 Y140.712 E21.18922
G1 X141.343 Y141.522 E21.22165
G1 X140.777 Y142.226 E21.25169
G1 X140.106 Y142.929 E21.28402
G1 X139.317 Y143.617 E21.31883
G1 X138.586 Y144.148 E21.34889
G1 X137.754 Y144.65 E21.3812
G1 X136.813 Y145.106 E21.41598
G1 X135.969 Y145.426 E21.44601
G1 X134.997 Y145.701 E21.4796
G1 X133.996 Y145.887 E21.51347
G1 X132.845 Y145.985 E21.55189
G1 X132.17 Y146 E21.57434
G1 X88.064 Y145.999 E23.04131
G1 X87.331 Y145.988 E23.0657
G1 X86.36 Y145.931 E23.09805
G1 X85.466 Y145.799 E23.12811
G1 X84.484 Y145.566 E23.16167
G1 X83.527 Y145.245 E23.19525
G1 X82.7 Y144.884 E23.22526
G1 X81.813 Y144.401 E23.25885
G1 X80.974 Y143.84 E23.29242
G1 X80.27 Y143.274 E23.32246
G1 X79.517 Y142.55 E23.35721
G1 X78.924 Y141.869 E23.38724
G1 X78.331 Y141.052 E23.42082
G1 X77.814 Y140.185 E23.45439
G1 X77.392 Y139.308 E23.48676
G1 X77.072 Y138.464 E23.51678
G1 X76.798 Y137.492 E23.55037
G1 X76.612 Y136.488 E23.58433
G1 X76.514 Y135.309 E23.62368
G1 X76.5 Y134.658 E23.64534
G1 X76.501 Y85.525 E25.27951
G1 X76.512 Y84.825 E25.3028
G1 X76.57 Y83.853 E25.33518
G1 X76.702 Y82.96 E25.36521
G1 X76.926 Y82.013 E25.39757
G1 X77.245 Y81.054 E25.43119
G1 X77.635 Y80.162 E25.46357
G1 X78.102 Y79.308 E25.49594
G1 X78.664 Y78.469 E25.52953
G1 X79.231 Y77.765 E25.55959
G1 X79.955 Y77.013 E25.59431
G1 F1500 E19.09431
;MESH:smart_medical(3).stl
G0 F6000 X87.92 Y84.335
G0 X131.9 Y134.4
;TYPE:WALL-INNER
G1 F1500 E25.59431
G1 F1200 X131.9 Y85.6 E27.21741
G1 X88.1 Y85.6 E28.6742
G1 X88.1 Y134.4 E30.2973
G1 X131.9 Y134.4 E31.75409
G0 F6000 X132.3 Y134.8
;TYPE:WALL-OUTER
G1 F1200 X132.3 Y85.2 E33.40379
G1 X87.7 Y85.2 E34.88719
G1 X87.7 Y134.8 E36.5369
G1 X132.3 Y134.8 E38.0203
G0 F6000 X132.03 Y134.53
G0 X131.8 Y134.04
G0 X131.54 Y134.04
;TYPE:SKIN
G1 F1200 X88.46 Y134.04 E39.45315
G1 X88.46 Y85.96 E41.05229
G1 X131.54 Y85.96 E42.48514
G1 X131.54 Y134.04 E44.08429
G1 F1500 E37.58429
G0 F6000 X131.8 Y134.04
G0 X89.149 Y134.3
G0 X89.149 Y133.839
G1 F1500 E44.08429
G1 F1200 X88.659 Y133.348 E44.10736
G0 F6000 X88.659 Y132.782
G1 F1200 X89.715 Y133.839 E44.15705
G0 F6000 X90.281 Y133.839
G1 F1200 X88.659 Y132.216 E44.23337
G0 F6000 X88.659 Y131.651
G1 F1200 X90.846 Y133.839 E44.33626
G0 F6000 X91.412 Y133.839
G1 F1200 X88.659 Y131.085 E44.46578
G0 F6000 X88.659 Y130.519
G1 F1200 X91.978 Y133.839 E44.62192
G0 F6000 X92.544 Y133.839
G1 F1200 X88.659 Y129.954 E44.80466
G0 F6000 X88.659 Y129.388
G1 F1200 X93.109 Y133.839 E45.014
G0 F6000 X93.675 Y133.839
G1 F1200 X88.659 Y128.822 E45.24996
G0 F6000 X88.659 Y128.257
G1 F1200 X94.241 Y133.839 E45.51252
G0 F6000 X94.806 Y133.839
G1 F1200 X88.659 Y127.691 E45.80168
G0 F6000 X88.659 Y127.125
G1 F1200 X95.372 Y133.839 E46.11746
G0 F6000 X95.938 Y133.839
G1 F1200 X88.659 Y126.56 E46.45984
G0 F6000 X88.659 Y125.994
G1 F1200 X96.503 Y133.839 E46.82882
G0 F6000 X97.069 Y133.839
G1 F1200 X88.659 Y125.428 E47.22443
G0 F6000 X88.659 Y124.863
G1 F1200 X97.635 Y133.839 E47.64663
G0 F6000 X98.2 Y133.839
G1 F1200 X88.659 Y124.297 E48.09543
G0 F6000 X88.659 Y123.731
G1 F1200 X98.766 Y133.839 E48.57086
G0 F6000 X99.332 Y133.839
G1 F1200 X88.659 Y123.165 E49.07291
G0 F6000 X88.659 Y122.6
G1 F1200 X99.897 Y133.839 E49.60153
G0 F6000 X100.463 Y133.839
G1 F1200 X88.659 Y122.034 E50.15678
G0 F6000 X88.659 Y121.468
G1 F1200 X101.029 Y133.839 E50.73865
G0 F6000 X101.594 Y133.839
G1 F1200 X88.659 Y120.903 E51.3471
G0 F6000 X88.659 Y120.337
G1 F1200 X102.16 Y133.839 E51.98216
G0 F6000 X102.726 Y133.839
G1 F1200 X88.659 Y119.771 E52.64386
G0 F6000 X88.659 Y119.206
G1 F1200 X103.292 Y133.839 E53.33215
G0 F6000 X103.857 Y133.839
G1 F1200 X88.659 Y118.64 E54.04704
G0 F6000 X88.659 Y118.074
G1 F1200 X104.423 Y133.839 E54.78855
G0 F6000 X104.989 Y133.839
G1 F1200 X88.659 Y117.509 E55.55667
G0 F6000 X88.659 Y116.943
G1 F1200 X105.554 Y133.839 E56.35138
G0 F6000 X106.12 Y133.839
G1 F1200 X88.659 Y116.377 E57.17271
G0 F6000 X88.659 Y115.812
G1 F1200 X106.686 Y133.839 E58.02065
G0 F6000 X107.251 Y133.839
G1 F1200 X88.659 Y115.246 E58.89518
G0 F6000 X88.659 Y114.68
G1 F1200 X107.817 Y133.839 E59.79634
G0 F6000 X108.383 Y133.839
G1 F1200 X88.659 Y114.115 E60.7241
G0 F6000 X88.659 Y113.549
G1 F1200 X108.948 Y133.839 E61.67845
G0 F6000 X109.514 Y133.839
G1 F1200 X88.659 Y112.983 E62.65943
G0 F6000 X88.659 Y112.417
G1 F1200 X110.08 Y133.839 E63.66703
G0 F6000 X110.645 Y133.839
G1 F1200 X88.659 Y111.852 E64.70121
G0 F6000 X88.659 Y111.286
G1 F1200 X111.211 Y133.839 E65.76201
G0 F6000 X111.777 Y133.839
G1 F1200 X88.659 Y110.72 E66.84943
G0 F6000 X88.659 Y110.155
G1 F1200 X112.343 Y133.839 E67.96346
G0 F6000 X112.908 Y133.839
G1 F1200 X88.659 Y109.589 E69.10408
G0 F6000 X88.659 Y109.023
G1 F1200 X113.474 Y133.839 E70.27132
G0 F6000 X114.04 Y133.839
G1 F1200 X88.659 Y108.458 E71.46517
G0 F6000 X88.659 Y107.892
G1 F1200 X114.605 Y133.839 E72.68561
G0 F6000 X115.171 Y133.839
G1 F1200 X88.659 Y107.326 E73.93268
G0 F6000 X88.659 Y106.761
G1 F1200 X115.737 Y133.839 E75.20635
G0 F6000 X116.302 Y133.839
G1 F1200 X88.659 Y106.195 E76.50661
G0 F6000 X88.659 Y105.629
G1 F1200 X116.868 Y133.839 E77.8335
G0 F6000 X117.434 Y133.839
G1 F1200 X88.659 Y105.064 E79.18699
G0 F6000 X88.659 Y104.498
G1 F1200 X117.999 Y133.839 E80.56707
G0 F6000 X118.565 Y133.839
G1 F1200 X88.659 Y103.932 E81.97378
G0 F6000 X88.659 Y103.366
G1 F1200 X119.131 Y133.839 E83.40712
G0 F6000 X119.696 Y133.839
G1 F1200 X88.659 Y102.801 E84.86703
G0 F6000 X88.659 Y102.235
G1 F1200 X120.262 Y133.839 E86.35356
G0 F6000 X120.828 Y133.839
G1 F1200 X88.659 Y101.669 E87.86671
G0 F6000 X88.659 Y101.104
G1 F1200 X121.393 Y133.839 E89.40644
G0 F6000 X121.959 Y133.839
G1 F1200 X88.659 Y100.538 E90.9728
G0 F6000 X88.659 Y99.972
G1 F1200 X122.525 Y133.839 E92.56577
G0 F6000 X123.091 Y133.839
G1 F1200 X88.659 Y99.407 E94.18535
G0 F6000 X88.659 Y98.841
G1 F1200 X123.656 Y133.839 E95.83152
G0 F6000 X124.222 Y133.839
G1 F1200 X88.659 Y98.275 E97.50432
G0 F6000 X88.659 Y97.71
G1 F1200 X124.788 Y133.839 E99.20372
G0 F6000 X125.353 Y133.839
G1 F1200 X88.659 Y97.144 E100.92972
G0 F6000 X88.659 Y96.578
G1 F1200 X125.919 Y133.839 E102.68234
G0 F6000 X126.485 Y133.839
G1 F1200 X88.659 Y96.013 E104.46155
G0 F6000 X88.659 Y95.447
G1 F1200 X127.05 Y133.839 E106.26737
G0 F6000 X127.616 Y133.839
G1 F1200 X88.659 Y94.881 E108.09981
G0 F6000 X88.659 Y94.316
G1 F1200 X128.182 Y133.839 E109.95886
G0 F6000 X128.747 Y133.839
G1 F1200 X88.659 Y93.75 E111.8445
G0 F6000 X88.659 Y93.184
G1 F1200 X129.313 Y133.839 E113.75676
G0 F6000 X129.879 Y133.839
G1 F1200 X88.659 Y92.618 E115.69564
G0 F6000 X88.659 Y92.053
G1 F1200 X130.444 Y133.839 E117.66111
G0 F6000 X131.01 Y133.839
G1 F1200 X88.659 Y91.487 E119.65319
G0 F6000 X88.659 Y90.921
G1 F1200 X131.34 Y133.602 E121.66077
G0 F6000 X131.34 Y133.037
G1 F1200 X88.659 Y90.356 E123.66836
G0 F6000 X88.659 Y89.79
G1 F1200 X131.34 Y132.471 E125.67594
G0 F6000 X131.34 Y131.905
G1 F1200 X88.659 Y89.224 E127.68352
G0 F6000 X88.659 Y88.659
G1 F1200 X131.34 Y131.34 E129.69111
G0 F6000 X131.34 Y130.774
G1 F1200 X88.659 Y88.093 E131.69869
G0 F6000 X88.659 Y87.527
G1 F1200 X131.34 Y130.208 E133.70627
G0 F6000 X131.34 Y129.643
G1 F1200 X88.659 Y86.962 E135.71386
G0 F6000 X88.659 Y86.396
G1 F1200 X131.34 Y129.077 E137.72144
G0 F6000 X131.34 Y128.511
G1 F1200 X88.988 Y86.16 E139.71353
G0 F6000 X89.554 Y86.16
G1 F1200 X131.34 Y127.946 E141.67901
G0 F6000 X131.34 Y127.38
G1 F1200 X90.12 Y86.16 E143.61787
G0 F6000 X90.685 Y86.16
G1 F1200 X131.34 Y126.814 E145.53014
G0 F6000 X131.34 Y126.248
G1 F1200 X91.251 Y86.16 E147.41578
G0 F6000 X91.817 Y86.16
G1 F1200 X131.34 Y125.683 E149.27482
G0 F6000 X131.34 Y125.117
G1 F1200 X92.382 Y86.16 E151.10726
G0 F6000 X92.948 Y86.16
G1 F1200 X131.34 Y124.551 E152.91308
G0 F6000 X131.34 Y123.986
G1 F1200 X93.514 Y86.16 E154.6923
G0 F6000 X94.079 Y86.16
G1 F1200 X131.34 Y123.42 E156.44492
G0 F6000 X131.34 Y122.854
G1 F1200 X94.645 Y86.16 E158.17091
G0 F6000 X95.211 Y86.16
G1 F1200 X131.34 Y122.289 E159.87031
G0 F6000 X131.34 Y121.723
G1 F1200 X95.776 Y86.16 E161.54311
G0 F6000 X96.342 Y86.16
G1 F1200 X131.34 Y121.157 E163.18928
G0 F6000 X131.34 Y120.592
G1 F1200 X96.908 Y86.16 E164.80886
G0 F6000 X97.473 Y86.16
G1 F1200 X131.34 Y120.026 E166.40184
G0 F6000 X131.34 Y119.46
G1 F1200 X98.039 Y86.16 E167.96819
G0 F6000 X98.605 Y86.16
G1 F1200 X131.34 Y118.895 E169.50794
G0 F6000 X131.34 Y118.329
G1 F1200 X99.171 Y86.16 E171.02107
G0 F6000 X99.736 Y86.16
G1 F1200 X131.34 Y117.763 E172.50761
G0 F6000 X131.34 Y117.197
G1 F1200 X100.302 Y86.16 E173.96751
G0 F6000 X100.868 Y86.16
G1 F1200 X131.34 Y116.632 E175.40082
G0 F6000 X131.34 Y116.066
G1 F1200 X101.433 Y86.16 E176.80753
G0 F6000 X101.999 Y86.16
G1 F1200 X131.34 Y115.5 E178.18762
G0 F6000 X131.34 Y114.935
G1 F1200 X102.565 Y86.16 E179.54111
G0 F6000 X103.13 Y86.16
G1 F1200 X131.34 Y114.369 E180.868
G0 F6000 X131.34 Y113.803
G1 F1200 X103.696 Y86.16 E182.16826
G0 F6000 X104.262 Y86.16
G1 F1200 X131.34 Y113.238 E183.44193
G0 F6000 X131.34 Y112.672
G1 F1200 X104.827 Y86.16 E184.689
G0 F6000 X105.393 Y86.16
G1 F1200 X131.34 Y112.106 E185.90944
G0 F6000 X131.34 Y111.541
G1 F1200 X105.959 Y86.16 E187.10328
G0 F6000 X106.524 Y86.16
G1 F1200 X131.34 Y110.975 E188.27053
G0 F6000 X131.34 Y110.409
G1 F1200 X107.09 Y86.16 E189.41115
G0 F6000 X107.656 Y86.16
G1 F1200 X131.34 Y109.844 E190.52517
