;FLAVOR:Marlin
;TIME:5430
;Filament used: 3.51158m
;Layer height: 0.2
;MINX:34.955
;MINY:76.939
;MINZ:0.2
;MAXX:140.424
;MAXY:144.125
;MAXZ:13
;Generated with Cura_SteamEngine 5.3.1
M82 ;absolute extrusion mode
; Ender 3 Custom Start G-code
G92 E0 ; Reset Extruder
G28 ; Home all axes
M104 S175 ; Start heating up the nozzle most of the way
M190 S60 ; Start heating the bed, wait until target temperature reached
M109 S200 ; Finish heating the nozzle
G1 Z2.0 F3000 ; Move Z Axis up little to prevent scratching of Heat Bed
G1 X0.1 Y20 Z0.3 F5000.0 ; Move to start position
G1 X0.1 Y200.0 Z0.3 F1500.0 E15 ; Draw the first line
G1 X0.4 Y200.0 Z0.3 F5000.0 ; Move to side a little
G1 X0.4 Y20 Z0.3 F1500.0 E30 ; Draw the second line
G92 E0 ; Reset Extruder
G1 Z2.0 F3000 ; Move Z Axis up little to prevent scratching of Heat Bed
G1 X5 Y20 Z0.3 F5000.0 ; Move over to prevent blob squish
G92 E0
G92 E0
G1 F1500 E-6.5
;LAYER_COUNT:65
;LAYER:0
M107
G0 F6000 X41.121 Y78.971 Z0.2
;TYPE:SKIRT
G1 F1500 E0
G1 F1200 X41.934 Y78.578 E0.03003
G1 X42.778 Y78.258 E0.06006
G1 X43.648 Y78.014 E0.09011
G1 X44.536 Y77.848 E0.12016
G1 X45.678 Y77.752 E0.15827
G1 X46.285 Y77.739 E0.17847
G1 X84.392 Y77.74 E1.44591
G1 X85.384 Y77.758 E1.47891
G1 X86.426 Y77.802 E1.5136
G1 X87.147 Y77.843 E1.53762
G1 X89.733 Y77.916 E1.62366
G1 X91.048 Y77.925 E1.6674
G1 X128.863 Y77.926 E2.92513
G1 X129.561 Y77.936 E2.94835
G1 X130.463 Y77.989 E2.9784
G1 X131.356 Y78.121 E3.00843
G1 X132.234 Y78.332 E3.03846
G1 X133.09 Y78.62 E3.0685
G1 X133.917 Y78.982 E3.09852
G1 X134.709 Y79.417 E3.12858
G1 X135.46 Y79.919 E3.15862
G1 X136.163 Y80.486 E3.18866
G1 X136.813 Y81.113 E3.2187
G1 X137.405 Y81.795 E3.24874
G1 X137.935 Y82.526 E3.27877
G1 X138.397 Y83.302 E3.30881
G1 X138.79 Y84.115 E3.33884
G1 X139.108 Y84.96 E3.36887
G1 X139.351 Y85.83 E3.39891
G1 X139.516 Y86.718 E3.42895
G1 X139.611 Y87.844 E3.46654
G1 X139.624 Y88.45 E3.4867
G1 X139.623 Y132.515 E4.95231
G1 X139.614 Y133.242 E4.97649
G1 X139.563 Y134.144 E5.00654
G1 X139.432 Y135.038 E5.03659
G1 X139.223 Y135.916 E5.06661
G1 X138.937 Y136.773 E5.09666
G1 X138.576 Y137.601 E5.1267
G1 X138.144 Y138.393 E5.15671
G1 X137.643 Y139.145 E5.18676
G1 X137.077 Y139.849 E5.2168
G1 X136.452 Y140.5 E5.24682
G1 X135.771 Y141.094 E5.27688
G1 X135.04 Y141.625 E5.30693
G1 X134.266 Y142.089 E5.33694
G1 X133.453 Y142.483 E5.36699
G1 X132.609 Y142.803 E5.39701
G1 X131.739 Y143.048 E5.42707
G1 X130.852 Y143.214 E5.45709
G1 X129.701 Y143.312 E5.49551
G1 X129.094 Y143.325 E5.5157
G1 X90.986 Y143.324 E6.78318
G1 X89.996 Y143.306 E6.81611
G1 X88.953 Y143.262 E6.85083
G1 X88.232 Y143.221 E6.87485
G1 X85.646 Y143.148 E6.9609
G1 X84.331 Y143.139 E7.00463
G1 X46.501 Y143.138 E8.26287
G1 X45.803 Y143.127 E8.28608
G1 X44.902 Y143.073 E8.31611
G1 X44.009 Y142.939 E8.34614
G1 X43.131 Y142.727 E8.37618
G1 X42.275 Y142.438 E8.40623
G1 X41.449 Y142.074 E8.43625
G1 X40.657 Y141.639 E8.46631
G1 X39.908 Y141.135 E8.49633
G1 X39.205 Y140.567 E8.52639
G1 X38.556 Y139.94 E8.55641
G1 X37.965 Y139.257 E8.58645
G1 X37.436 Y138.525 E8.61649
G1 X36.975 Y137.748 E8.64654
G1 X36.584 Y136.934 E8.67657
G1 X36.266 Y136.089 E8.7066
G1 X36.025 Y135.219 E8.73663
G1 X35.861 Y134.331 E8.76666
G1 X35.768 Y133.205 E8.80424
G1 X35.755 Y132.597 E8.82447
G1 X35.756 Y88.494 E10.29134
G1 X35.765 Y87.813 E10.31399
G1 X35.817 Y86.912 E10.34401
G1 X35.948 Y86.018 E10.37406
G1 X36.158 Y85.14 E10.40408
G1 X36.445 Y84.283 E10.43414
G1 X36.806 Y83.456 E10.46416
G1 X37.24 Y82.663 E10.49422
G1 X37.741 Y81.912 E10.52425
G1 X38.307 Y81.209 E10.55427
G1 X38.934 Y80.558 E10.58433
G1 X39.615 Y79.965 E10.61436
G1 X40.346 Y79.435 E10.6444
G1 X41.121 Y78.971 E10.67444
G0 F6000 X40.947 Y78.611
G1 F1200 X41.792 Y78.204 E10.70563
G1 X42.636 Y77.884 E10.73566
G1 X43.574 Y77.621 E10.76806
G1 X44.502 Y77.449 E10.79945
G1 X45.644 Y77.353 E10.83756
G1 X46.285 Y77.339 E10.85889
G1 X84.399 Y77.34 E12.12657
G1 X85.401 Y77.358 E12.1599
G1 X86.449 Y77.403 E12.19479
G1 X87.158 Y77.443 E12.21841
G1 X89.744 Y77.516 E12.30445
G1 X91.051 Y77.525 E12.34792
G1 X128.869 Y77.526 E13.60575
G1 X129.584 Y77.537 E13.62954
G1 X130.521 Y77.593 E13.66076
G1 X131.414 Y77.725 E13.69078
G1 X132.362 Y77.953 E13.72321
G1 X133.218 Y78.241 E13.75325
G1 X134.11 Y78.631 E13.78563
G1 X134.902 Y79.066 E13.81569
G1 X135.682 Y79.586 E13.84686
G1 X136.441 Y80.198 E13.87929
G1 X137.091 Y80.825 E13.90933
G1 X137.729 Y81.56 E13.9417
G1 X138.279 Y82.321 E13.97293
G1 X138.741 Y83.097 E14.00297
G1 X139.164 Y83.974 E14.03535
G1 X139.493 Y84.852 E14.06654
G1 X139.744 Y85.757 E14.09778
G1 X139.915 Y86.684 E14.12913
G1 X140.01 Y87.81 E14.16671
G1 X140.024 Y88.45 E14.188
G1 X140.023 Y132.52 E15.65378
G1 X140.013 Y133.265 E15.67856
G1 X139.959 Y134.202 E15.70978
G1 X139.828 Y135.096 E15.73983
G1 X139.612 Y136.009 E15.77103
G1 X139.304 Y136.933 E15.80343
G1 X138.943 Y137.761 E15.83347
G1 X138.477 Y138.615 E15.86583
G1 X137.955 Y139.396 E15.89707
G1 X137.389 Y140.1 E15.92712
G1 X136.741 Y140.777 E15.95829
G1 X136.006 Y141.418 E15.99072
G1 X135.275 Y141.949 E16.02077
G1 X134.472 Y142.432 E16.05194
G1 X133.595 Y142.857 E16.08435
G1 X132.751 Y143.177 E16.11438
G1 X131.813 Y143.441 E16.14679
G1 X130.886 Y143.613 E16.17814
G1 X129.735 Y143.711 E16.21657
G1 X129.094 Y143.725 E16.23789
G1 X90.979 Y143.724 E17.5056
G1 X89.979 Y143.706 E17.53887
G1 X88.93 Y143.661 E17.57379
G1 X88.221 Y143.621 E17.59741
G1 X85.635 Y143.548 E17.68345
G1 X84.328 Y143.539 E17.72692
G1 X46.495 Y143.538 E18.98525
G1 X45.779 Y143.526 E19.00907
G1 X44.843 Y143.469 E19.04026
G1 X43.95 Y143.335 E19.0703
G1 X43.037 Y143.116 E19.10152
G1 X42.147 Y142.817 E19.13275
G1 X41.256 Y142.425 E19.16513
G1 X40.464 Y141.99 E19.19518
G1 X39.685 Y141.467 E19.22639
G1 X38.927 Y140.855 E19.25879
G1 X38.278 Y140.228 E19.2888
G1 X37.663 Y139.519 E19.32002
G1 X37.092 Y138.729 E19.35244
G1 X36.614 Y137.921 E19.38367
G1 X36.223 Y137.107 E19.4137
G1 X35.881 Y136.196 E19.44607
G1 X35.632 Y135.292 E19.47725
G1 X35.462 Y134.364 E19.50863
G1 X35.368 Y133.214 E19.54701
G1 X35.355 Y132.597 E19.56754
G1 X35.356 Y88.489 E21.03457
G1 X35.366 Y87.79 E21.05782
G1 X35.421 Y86.854 E21.08901
G1 X35.552 Y85.96 E21.11906
G1 X35.769 Y85.047 E21.15027
G1 X36.078 Y84.123 E21.18268
G1 X36.439 Y83.296 E21.21269
G1 X36.907 Y82.441 E21.24511
G1 X37.429 Y81.661 E21.27633
G1 X37.995 Y80.958 E21.30635
G1 X38.671 Y80.256 E21.33876
G1 X39.352 Y79.663 E21.36879
G1 X40.111 Y79.111 E21.40001
G1 X40.947 Y78.611 E21.43241
G0 F6000 X40.773 Y78.251
G1 F1200 X41.65 Y77.83 E21.46476
G1 X42.494 Y77.51 E21.49478
G1 X43.466 Y77.236 E21.52837
G1 X44.468 Y77.05 E21.56227
G1 X45.61 Y76.954 E21.60039
G1 X46.285 Y76.939 E21.62284
G1 X84.406 Y76.94 E22.89075
G1 X85.418 Y76.958 E22.92442
G1 X86.472 Y77.004 E22.95951
G1 X87.169 Y77.043 E22.98273
G1 X89.755 Y77.116 E23.06877
G1 X91.054 Y77.125 E23.11198
G1 X128.875 Y77.126 E24.36991
G1 X129.608 Y77.138 E24.39429
G1 X130.579 Y77.197 E24.42665
G1 X131.508 Y77.336 E24.45789
G1 X132.456 Y77.564 E24.49032
G1 X133.378 Y77.874 E24.52267
G1 X134.303 Y78.28 E24.55627
G1 X135.095 Y78.715 E24.58632
G1 X135.904 Y79.253 E24.61864
G1 X136.719 Y79.91 E24.65346
G1 X137.369 Y80.537 E24.68349
G1 X138.031 Y81.298 E24.71704
G1 X138.623 Y82.116 E24.75063
G1 X139.085 Y82.892 E24.78066
G1 X139.539 Y83.834 E24.81544
G1 X139.868 Y84.712 E24.84663
G1 X140.137 Y85.684 E24.88017
G1 X140.314 Y86.65 E24.91284
G1 X140.409 Y87.776 E24.95042
G1 X140.424 Y88.45 E24.97284
G1 X140.423 Y132.525 E26.43878
G1 X140.412 Y133.288 E26.46416
G1 X140.355 Y134.26 E26.49655
G1 X140.224 Y135.154 E26.5266
G1 X140.001 Y136.101 E26.55896
G1 X139.671 Y137.093 E26.59373
G1 X139.31 Y137.921 E26.62377
G1 X138.81 Y138.837 E26.65848
G1 X138.267 Y139.647 E26.69092
G1 X137.701 Y140.351 E26.72096
G1 X137.03 Y141.054 E26.75329
G1 X136.241 Y141.742 E26.7881
G1 X135.51 Y142.273 E26.81815
G1 X134.678 Y142.775 E26.85047
G1 X133.737 Y143.231 E26.88525
G1 X132.893 Y143.551 E26.91527
G1 X131.921 Y143.826 E26.94887
G1 X130.92 Y144.012 E26.98273
G1 X129.769 Y144.11 E27.02116
G1 X129.094 Y144.125 E27.04361
G1 X90.972 Y144.124 E28.31155
G1 X89.962 Y144.106 E28.34515
G1 X88.907 Y144.06 E28.38028
G1 X88.21 Y144.021 E28.40349
G1 X85.624 Y143.948 E28.48954
G1 X84.325 Y143.939 E28.53275
G1 X46.488 Y143.938 E29.79121
G1 X45.755 Y143.925 E29.81559
G1 X44.784 Y143.865 E29.84795
G1 X43.891 Y143.731 E29.87798
G1 X42.944 Y143.505 E29.91037
G1 X41.986 Y143.183 E29.94398
G1 X41.063 Y142.776 E29.97753
G1 X40.271 Y142.341 E30.00759
G1 X39.462 Y141.799 E30.03997
G1 X38.649 Y141.143 E30.07472
G1 X38 Y140.516 E30.10473
G1 X37.361 Y139.781 E30.13713
G1 X36.748 Y138.933 E30.17193
G1 X36.253 Y138.094 E30.20433
G1 X35.862 Y137.28 E30.23436
G1 X35.495 Y136.302 E30.26911
G1 X35.246 Y135.398 E30.30029
G1 X35.063 Y134.397 E30.33414
G1 X34.969 Y133.247 E30.37252
G1 X34.955 Y132.597 E30.39414
G1 X34.956 Y88.483 E31.86138
G1 X34.967 Y87.767 E31.88519
G1 X35.025 Y86.796 E31.91755
G1 X35.156 Y85.902 E31.9476
G1 X35.39 Y84.92 E31.98118
G1 X35.711 Y83.963 E32.01475
G1 X36.072 Y83.136 E32.04476
G1 X36.556 Y82.249 E32.07837
G1 X37.117 Y81.41 E32.11194
G1 X37.683 Y80.707 E32.14196
G1 X38.408 Y79.954 E32.17672
G1 X39.089 Y79.361 E32.20676
G1 X39.906 Y78.768 E32.24033
G1 X40.773 Y78.251 E32.27391
G1 F1500 E25.77391
;MESH:pill_cap.stl(1)
G0 F6000 X46.375 Y87.274
G0 X84.355 Y132.339
;TYPE:WALL-INNER
G1 F1500 E32.27391
G1 F1200 X84.355 Y88.539 E33.7307
G1 X46.555 Y88.539 E34.98793
G1 X46.555 Y132.339 E36.44473
G1 X84.355 Y132.339 E37.70196
G0 F6000 X84.755 Y132.739
;TYPE:WALL-OUTER
G1 F1200 X84.755 Y88.139 E39.18536
G1 X46.155 Y88.139 E40.4692
G1 X46.155 Y132.739 E41.95261
G1 X84.755 Y132.739 E43.23645
G0 F6000 X84.485 Y132.469
G0 X84.255 Y131.979
G0 X83.995 Y131.979
;TYPE:SKIN
G1 F1200 X46.915 Y131.979 E44.46973
G1 X46.915 Y88.899 E45.90258
G1 X83.995 Y88.899 E47.13587
G1 X83.995 Y131.979 E48.56871
G1 F1500 E42.06871
G0 F6000 X84.255 Y131.979
G0 X47.49 Y132.239
G0 X47.49 Y131.777
G1 F1500 E48.56871
G1 F1200 X47.114 Y131.401 E48.5864
G0 F6000 X47.114 Y130.835
G1 F1200 X48.056 Y131.777 E48.63071
G0 F6000 X48.622 Y131.777
G1 F1200 X47.114 Y130.27 E48.70162
G0 F6000 X47.114 Y129.704
G1 F1200 X49.187 Y131.777 E48.79912
G0 F6000 X49.753 Y131.777
G1 F1200 X47.114 Y129.138 E48.92325
G0 F6000 X47.114 Y128.573
G1 F1200 X50.319 Y131.777 E49.07398
G0 F6000 X50.884 Y131.777
G1 F1200 X47.114 Y128.007 E49.25131
G0 F6000 X47.114 Y127.441
G1 F1200 X51.45 Y131.777 E49.45526
G0 F6000 X52.016 Y131.777
G1 F1200 X47.114 Y126.876 E49.68582
G0 F6000 X47.114 Y126.31
G1 F1200 X52.581 Y131.777 E49.94297
G0 F6000 X53.147 Y131.777
G1 F1200 X47.114 Y125.744 E50.22674
G0 F6000 X47.114 Y125.179
G1 F1200 X53.713 Y131.777 E50.53711
G0 F6000 X54.278 Y131.777
G1 F1200 X47.114 Y124.613 E50.87409
G0 F6000 X47.114 Y124.047
G1 F1200 X54.844 Y131.777 E51.23768
G0 F6000 X55.41 Y131.777
G1 F1200 X47.114 Y123.482 E51.62788
G0 F6000 X47.114 Y122.916
G1 F1200 X55.975 Y131.777 E52.04467
G0 F6000 X56.541 Y131.777
G1 F1200 X47.114 Y122.35 E52.48809
G0 F6000 X47.114 Y121.785
G1 F1200 X57.107 Y131.777 E52.95811
G0 F6000 X57.673 Y131.777
G1 F1200 X47.114 Y121.219 E53.45474
G0 F6000 X47.114 Y120.653
G1 F1200 X58.238 Y131.777 E53.97798
G0 F6000 X58.804 Y131.777
G1 F1200 X47.114 Y120.087 E54.52785
G0 F6000 X47.114 Y119.522
G1 F1200 X59.37 Y131.777 E55.10431
G0 F6000 X59.935 Y131.777
G1 F1200 X47.114 Y118.956 E55.70737
G0 F6000 X47.114 Y118.39
G1 F1200 X60.501 Y131.777 E56.33705
G0 F6000 X61.067 Y131.777
G1 F1200 X47.114 Y117.825 E56.99333
G0 F6000 X47.114 Y117.259
G1 F1200 X61.632 Y131.777 E57.67622
G0 F6000 X62.198 Y131.777
G1 F1200 X47.114 Y116.693 E58.38572
G0 F6000 X47.114 Y116.128
G1 F1200 X62.764 Y131.777 E59.12182
G0 F6000 X63.329 Y131.777
G1 F1200 X47.114 Y115.562 E59.88453
G0 F6000 X47.114 Y114.996
G1 F1200 X63.895 Y131.777 E60.67386
G0 F6000 X64.461 Y131.777
G1 F1200 X47.114 Y114.431 E61.48978
G0 F6000 X47.114 Y113.865
G1 F1200 X65.026 Y131.777 E62.33231
G0 F6000 X65.592 Y131.777
G1 F1200 X47.114 Y113.299 E63.20146
G0 F6000 X47.114 Y112.734
G1 F1200 X66.158 Y131.777 E64.0972
G0 F6000 X66.724 Y131.777
G1 F1200 X47.114 Y112.168 E65.01957
G0 F6000 X47.114 Y111.602
G1 F1200 X67.289 Y131.777 E65.96854
G0 F6000 X67.855 Y131.777
G1 F1200 X47.114 Y111.036 E66.94414
G0 F6000 X47.114 Y110.471
G1 F1200 X68.421 Y131.777 E67.94633
G0 F6000 X68.986 Y131.777
G1 F1200 X47.114 Y109.905 E68.97512
G0 F6000 X47.114 Y109.339
G1 F1200 X69.552 Y131.777 E70.03054
G0 F6000 X70.118 Y131.777
G1 F1200 X47.114 Y108.774 E71.11255
G0 F6000 X47.114 Y108.208
G1 F1200 X70.683 Y131.777 E72.22116
G0 F6000 X71.249 Y131.777
G1 F1200 X47.114 Y107.642 E73.3564
G0 F6000 X47.114 Y107.077
G1 F1200 X71.815 Y131.777 E74.51824
G0 F6000 X72.38 Y131.777
G1 F1200 X47.114 Y106.511 E75.70667
G0 F6000 X47.114 Y105.945
G1 F1200 X72.946 Y131.777 E76.92173
G0 F6000 X73.512 Y131.777
G1 F1200 X47.114 Y105.38 E78.16339
G0 F6000 X47.114 Y104.814
G1 F1200 X74.077 Y131.777 E79.43164
G0 F6000 X74.643 Y131.777
G1 F1200 X47.114 Y104.248 E80.72652
G0 F6000 X47.114 Y103.683
G1 F1200 X75.209 Y131.777 E82.048
G0 F6000 X75.774 Y131.777
G1 F1200 X47.114 Y103.117 E83.39608
G0 F6000 X47.114 Y102.551
G1 F1200 X76.34 Y131.777 E84.77078
G0 F6000 X76.906 Y131.777
G1 F1200 X47.114 Y101.986 E86.17208
G0 F6000 X47.114 Y101.42
G1 F1200 X77.472 Y131.777 E87.60001
G0 F6000 X78.037 Y131.777
G1 F1200 X47.114 Y100.854 E89.05453
G0 F6000 X47.114 Y100.288
G1 F1200 X78.603 Y131.777 E90.53568
G0 F6000 X79.169 Y131.777
G1 F1200 X47.114 Y99.723 E92.04342
G0 F6000 X47.114 Y99.157
G1 F1200 X79.734 Y131.777 E93.57777
G0 F6000 X80.3 Y131.777
G1 F1200 X47.114 Y98.591 E95.13873
G0 F6000 X47.114 Y98.026
G1 F1200 X80.866 Y131.777 E96.7263
G0 F6000 X81.431 Y131.777
G1 F1200 X47.114 Y97.46 E98.34047
G0 F6000 X47.114 Y96.894
G1 F1200 X81.997 Y131.777 E99.98126
G0 F6000 X82.563 Y131.777
G1 F1200 X47.114 Y96.329 E101.64865
G0 F6000 X47.114 Y95.763
G1 F1200 X83.128 Y131.777 E103.34263
G0 F6000 X83.694 Y131.777
G1 F1200 X47.114 Y95.197 E105.06325
G0 F6000 X47.114 Y94.632
G1 F1200 X83.794 Y131.312 E106.78856
G0 F6000 X83.794 Y130.746
G1 F1200 X47.114 Y94.066 E108.51387
G0 F6000 X47.114 Y93.5
G1 F1200 X83.794 Y130.181 E110.23921
G0 F6000 X83.794 Y129.615
G1 F1200 X47.114 Y92.935 E111.96453
G0 F6000 X47.114 Y92.369
G1 F1200 X83.794 Y129.049 E113.68984
G0 F6000 X83.794 Y128.484
G1 F1200 X47.114 Y91.803 E115.41518
G0 F6000 X47.114 Y91.237
G1 F1200 X83.794 Y127.918 E117.14052
G0 F6000 X83.794 Y127.352
G1 F1200 X47.114 Y90.672 E118.86583
G0 F6000 X47.114 Y90.106
G1 F1200 X83.794 Y126.787 E120.59117
G0 F6000 X83.794 Y126.221
G1 F1200 X47.114 Y89.54 E122.31651
G0 F6000 X47.237 Y89.098
G1 F1200 X83.794 Y125.655 E124.03604
G0 F6000 X83.794 Y125.09
G1 F1200 X47.803 Y89.098 E125.72897
G0 F6000 X48.368 Y89.098
G1 F1200 X83.794 Y124.524 E127.3953
G0 F6000 X83.794 Y123.958
G1 F1200 X48.934 Y89.098 E129.03501
G0 F6000 X49.5 Y89.098
G1 F1200 X83.794 Y123.392 E130.64809
G0 F6000 X83.794 Y122.827
G1 F1200 X50.065 Y89.098 E132.2346
G0 F6000 X50.631 Y89.098
G1 F1200 X83.794 Y122.261 E133.79449
G0 F6000 X83.794 Y121.695
G1 F1200 X51.197 Y89.098 E135.32775
G0 F6000 X51.763 Y89.098
G1 F1200 X83.794 Y121.13 E136.83441
G0 F6000 X83.794 Y120.564
G1 F1200 X52.328 Y89.098 E138.31448
G0 F6000 X52.894 Y89.098
G1 F1200 X83.794 Y119.998 E139.76792
G0 F6000 X83.794 Y119.433
G1 F1200 X53.46 Y89.098 E141.19476
G0 F6000 X54.025 Y89.098
G1 F1200 X83.794 Y118.867 E142.595
G0 F6000 X83.794 Y118.301
G1 F1200 X54.591 Y89.098 E143.96862
G0 F6000 X55.157 Y89.098
G1 F1200 X83.794 Y117.736 E145.31564
G0 F6000 X83.794 Y117.17
G1 F1200 X55.722 Y89.098 E146.63606
G0 F6000 X56.288 Y89.098
G1 F1200 X83.794 Y116.604 E147.92986
G0 F6000 X83.794 Y116.039
G1 F1200 X56.854 Y89.098 E149.19706
G0 F6000 X57.419 Y89.098
G1 F1200 X83.794 Y115.473 E150.43766
G0 F6000 X83.794 Y114.907
G1 F1200 X57.985 Y89.098 E151.65164
G0 F6000 X58.551 Y89.098
G1 F1200 X83.794 Y114.341 E152.83899
G0 F6000 X83.794 Y113.776
G1 F1200 X59.116 Y89.098 E153.99977
G0 F6000 X59.682 Y89.098
G1 F1200 X83.794 Y113.21 E155.13392
G0 F6000 X83.794 Y112.644
G1 F1200 X60.248 Y89.098 E156.24145
G0 F6000 X60.814 Y89.098
