;FLAVOR:Marlin
;TIME:1772
;Filament used: 1.07926m
;Layer height: 0.2
;MINX:73.258
;MINY:74.233
;MINZ:0.2
;MAXX:146.737
;MAXY:145.782
;MAXZ:4
;Generated with Cura_SteamEngine 5.3.1
M82 ;absolute extrusion mode
; Ender 3 Custom Start G-code
G92 E0 ; Reset Extruder
G28 ; Home all axes
M104 S175 ; Start heating up the nozzle most of the way
M190 S60 ; Start heating the bed, wait until target temperature reached
M109 S200 ; Finish heating the nozzle
G1 Z2.0 F3000 ; Move Z Axis up little to prevent scratching of Heat Bed
G1 X0.1 Y20 Z0.3 F5000.0 ; Move to start position
G1 X0.1 Y200.0 Z0.3 F1500.0 E15 ; Draw the first line
G1 X0.4 Y200.0 Z0.3 F5000.0 ; Move to side a little
G1 X0.4 Y20 Z0.3 F1500.0 E30 ; Draw the second line
G92 E0 ; Reset Extruder
G1 Z2.0 F3000 ; Move Z Axis up little to prevent scratching of Heat Bed
G1 X5 Y20 Z0.3 F5000.0 ; Move over to prevent blob squish
G92 E0
G92 E0
G1 F1500 E-6.5
;LAYER_COUNT:20
;LAYER:0
M107
G0 F6000 X79.529 Y79.587 Z0.2
;TYPE:SKIRT
G1 F1500 E0
G1 F1200 X79.952 Y79.204 E0.01898
G1 X80.404 Y78.817 E0.03877
G1 X80.996 Y78.335 E0.06416
G1 X81.723 Y77.8 E0.09418
G1 X82.205 Y77.498 E0.1131
G1 X83.035 Y77.012 E0.14509
G1 X83.377 Y76.824 E0.15807
G1 X84.187 Y76.425 E0.1881
G1 X84.718 Y76.209 E0.20717
G1 X85.341 Y75.976 E0.22929
G1 X86.003 Y75.747 E0.25259
G1 X86.87 Y75.496 E0.28261
G1 X87.425 Y75.378 E0.30148
G1 X88.094 Y75.255 E0.32411
G1 X88.81 Y75.143 E0.34821
G1 X89.708 Y75.052 E0.37823
G1 X90.264 Y75.035 E0.39673
G1 X90.99 Y75.033 E0.42088
G1 X91.657 Y75.048 E0.44307
G1 X92.557 Y75.116 E0.47309
G1 X93.116 Y75.199 E0.49189
G1 X93.806 Y75.321 E0.51519
G1 X94.52 Y75.466 E0.53942
G1 X95.784 Y75.82 E0.58308
G1 X97.44 Y76.401 E0.64145
G1 X99.906 Y77.193 E0.7276
G1 X102.331 Y77.898 E0.81159
G1 X104.795 Y78.54 E0.89628
G1 X107.284 Y79.113 E0.98123
G1 X109.762 Y79.61 E1.06529
G1 X112.249 Y80.036 E1.14922
G1 X114.757 Y80.393 E1.23347
G1 X117.331 Y80.686 E1.31964
G1 X119.826 Y80.898 E1.40292
G1 X122.344 Y81.042 E1.48681
G1 X124.904 Y81.114 E1.57199
G1 X127.452 Y81.114 E1.65673
G1 X130.462 Y81.032 E1.75688
G1 X131.365 Y81.047 E1.78692
G1 X132.166 Y81.128 E1.8137
G1 X132.952 Y81.239 E1.8401
G1 X134.029 Y81.421 E1.87643
G1 X134.911 Y81.614 E1.90646
G1 X135.773 Y81.885 E1.93651
G1 X136.786 Y82.316 E1.97313
G1 X137.598 Y82.715 E2.00322
G1 X138.453 Y83.163 E2.03532
G1 X139.232 Y83.62 E2.06536
G1 X139.967 Y84.144 E2.09539
G1 X140.781 Y84.853 E2.13129
G1 X141.332 Y85.387 E2.15681
G1 X142.08 Y86.148 E2.1923
G1 X142.682 Y86.821 E2.22233
G1 X143.222 Y87.545 E2.25237
G1 X143.796 Y88.499 E2.2894
G1 X144.303 Y89.465 E2.32569
G1 X144.644 Y90.157 E2.35135
G1 X145.007 Y90.984 E2.38139
G1 X145.296 Y91.84 E2.41144
G1 X145.544 Y92.915 E2.44813
G1 X145.693 Y93.77 E2.477
G1 X145.839 Y94.756 E2.51015
G1 X145.928 Y95.655 E2.5402
G1 X145.937 Y96.558 E2.57023
G1 X145.841 Y97.646 E2.60656
G1 X145.684 Y98.719 E2.64263
G1 X145.552 Y99.486 E2.66851
G1 X145.289 Y100.623 E2.70733
G1 X145.007 Y101.586 E2.7407
G1 X144.339 Y103.996 E2.82388
G1 X143.712 Y106.54 E2.91103
G1 X143.371 Y108.063 E2.96294
G1 X143.135 Y108.935 E2.99298
G1 X142.889 Y109.621 E3.01722
G1 X142.483 Y110.634 E3.05352
G1 X138.599 Y119.877 E3.38698
G1 X138.257 Y120.664 E3.41552
G1 X137.86 Y121.475 E3.44556
G1 X137.243 Y122.467 E3.48441
G1 X136.754 Y123.161 E3.51265
G1 X131.184 Y130.814 E3.82747
G1 X130.675 Y131.494 E3.85572
G1 X130.102 Y132.192 E3.88576
G1 X129.469 Y132.836 E3.91579
G1 X129.088 Y133.173 E3.93271
G1 X128.615 Y133.566 E3.95316
G1 X121.601 Y139.13 E4.25094
G1 X120.964 Y139.623 E4.27773
G1 X120.226 Y140.144 E4.30777
G1 X119.445 Y140.597 E4.3378
G1 X118.404 Y141.069 E4.37582
G1 X117.59 Y141.384 E4.40485
G1 X110.016 Y144.172 E4.67329
G1 X109.409 Y144.385 E4.69468
G1 X108.545 Y144.646 E4.7247
G1 X107.661 Y144.829 E4.75473
G1 X106.763 Y144.934 E4.7848
G1 X106.247 Y144.958 E4.80198
G1 X105.156 Y144.981 E4.83827
G1 X97.536 Y144.982 E5.09172
G1 X96.834 Y144.972 E5.11507
G1 X95.932 Y144.919 E5.14512
G1 X95.039 Y144.787 E5.17514
G1 X94.561 Y144.682 E5.19142
G1 X93.475 Y144.416 E5.22861
G1 X92.905 Y144.267 E5.2482
G1 X90.444 Y143.698 E5.33222
G1 X87.037 Y143.029 E5.4477
G1 X86.547 Y142.926 E5.46435
G1 X85.672 Y142.701 E5.4944
G1 X85.118 Y142.515 E5.51384
G1 X84.445 Y142.267 E5.53769
G1 X83.782 Y142.003 E5.56143
G1 X82.962 Y141.625 E5.59146
G1 X82.479 Y141.359 E5.6098
G1 X81.906 Y141.023 E5.63189
G1 X81.356 Y140.684 E5.65338
G1 X80.612 Y140.172 E5.68342
G1 X80.135 Y139.788 E5.70379
G1 X79.598 Y139.329 E5.72728
G1 X79.077 Y138.861 E5.75058
G1 X78.437 Y138.224 E5.78061
G1 X78.077 Y137.811 E5.79883
G1 X77.695 Y137.348 E5.8188
G1 X77.223 Y136.747 E5.84421
G1 X76.702 Y136.01 E5.87423
G1 X76.404 Y135.516 E5.89342
G1 X75.945 Y134.697 E5.92465
G1 X75.76 Y134.347 E5.93782
G1 X75.374 Y133.53 E5.96787
G1 X75.18 Y133.032 E5.98564
G1 X74.975 Y132.462 E6.00579
G1 X74.718 Y131.686 E6.03298
G1 X74.478 Y130.815 E6.06303
G1 X74.37 Y130.278 E6.08125
G1 X74.236 Y129.482 E6.1081
G1 X74.162 Y128.969 E6.12533
G1 X74.073 Y128.071 E6.15535
G1 X74.058 Y127.513 E6.17391
G1 X74.058 Y126.924 E6.1935
G1 X74.078 Y126.118 E6.22032
G1 X74.145 Y125.217 E6.25037
G1 X74.219 Y124.704 E6.26761
G1 X74.752 Y121.587 E6.37279
G1 X75.114 Y119.061 E6.45766
G1 X75.4 Y116.558 E6.54145
G1 X75.621 Y113.981 E6.62748
G1 X75.762 Y111.502 E6.71006
G1 X75.837 Y108.925 E6.79581
G1 X75.839 Y106.391 E6.88009
G1 X75.769 Y103.859 E6.96434
G1 X75.627 Y101.329 E7.04862
G1 X75.412 Y98.775 E7.13387
G1 X75.129 Y96.28 E7.21738
G1 X74.695 Y93.188 E7.32123
G1 X74.609 Y92.289 E7.35127
G1 X74.596 Y91.752 E7.36913
G1 X74.602 Y90.861 E7.39877
G1 X74.618 Y90.359 E7.41547
G1 X74.687 Y89.459 E7.4455
G1 X74.764 Y88.937 E7.46305
G1 X74.853 Y88.425 E7.48033
G1 X75.012 Y87.626 E7.50743
G1 X75.231 Y86.75 E7.53746
G1 X75.396 Y86.247 E7.55507
G1 X75.605 Y85.66 E7.57579
G1 X75.883 Y84.938 E7.60152
G1 X76.249 Y84.112 E7.63157
G1 X76.508 Y83.627 E7.64986
G1 X76.929 Y82.892 E7.67803
G1 X77.178 Y82.48 E7.69404
G1 X77.679 Y81.729 E7.72407
G1 X78.031 Y81.276 E7.74315
G1 X78.621 Y80.565 E7.77388
G1 X78.905 Y80.24 E7.78823
G1 X79.529 Y79.587 E7.81828
G0 F6000 X79.261 Y79.29
G1 F1200 X79.692 Y78.9 E7.83761
G1 X80.151 Y78.507 E7.85771
G1 X80.759 Y78.013 E7.88376
G1 X81.511 Y77.461 E7.91479
G1 X82.003 Y77.153 E7.93409
G1 X82.842 Y76.661 E7.96644
G1 X83.2 Y76.465 E7.98002
G1 X84.036 Y76.054 E8.011
G1 X84.578 Y75.834 E8.03046
G1 X85.21 Y75.598 E8.0529
G1 X85.892 Y75.363 E8.07689
G1 X86.759 Y75.112 E8.10691
G1 X87.353 Y74.985 E8.12711
G1 X88.032 Y74.86 E8.15008
G1 X88.77 Y74.745 E8.17492
G1 X89.696 Y74.652 E8.20587
G1 X90.263 Y74.635 E8.22474
G1 X90.999 Y74.633 E8.24922
G1 X91.687 Y74.649 E8.27211
G1 X92.616 Y74.72 E8.3031
G1 X93.186 Y74.805 E8.32226
G1 X93.886 Y74.929 E8.34591
G1 X94.6 Y75.074 E8.37014
G1 X95.892 Y75.435 E8.41476
G1 X97.562 Y76.02 E8.47361
G1 X100.025 Y76.811 E8.55965
G1 X102.439 Y77.513 E8.64327
G1 X104.885 Y78.15 E8.72734
G1 X107.374 Y78.723 E8.81229
G1 X109.837 Y79.217 E8.89584
G1 X112.305 Y79.64 E8.97912
G1 X114.813 Y79.997 E9.06338
G1 X117.365 Y80.287 E9.1488
G1 X119.86 Y80.5 E9.23209
G1 X122.355 Y80.642 E9.31521
G1 X124.915 Y80.714 E9.40039
G1 X127.441 Y80.714 E9.4844
G1 X130.469 Y80.632 E9.58515
G1 X131.405 Y80.649 E9.61629
G1 X132.222 Y80.732 E9.6436
G1 X133.019 Y80.845 E9.67038
G1 X134.115 Y81.03 E9.70734
G1 X135.031 Y81.232 E9.73854
G1 X135.893 Y81.503 E9.7686
G1 X136.962 Y81.957 E9.80723
G1 X137.784 Y82.361 E9.83769
G1 X138.655 Y82.818 E9.8704
G1 X139.464 Y83.294 E9.90162
G1 X140.23 Y83.842 E9.93295
G1 X141.044 Y84.551 E9.96885
G1 X141.617 Y85.107 E9.99541
G1 X142.378 Y85.881 E10.03151
G1 X143.003 Y86.582 E10.06275
G1 X143.543 Y87.306 E10.09279
G1 X144.15 Y88.313 E10.13189
G1 X144.662 Y89.288 E10.16852
G1 X145.01 Y89.996 E10.19476
G1 X145.386 Y90.856 E10.22598
G1 X145.686 Y91.75 E10.25734
G1 X145.938 Y92.846 E10.29475
G1 X146.089 Y93.711 E10.32395
G1 X146.237 Y94.717 E10.35777
G1 X146.328 Y95.651 E10.38898
G1 X146.337 Y96.554 E10.41902
G1 X146.237 Y97.704 E10.45741
G1 X146.078 Y98.787 E10.49382
G1 X145.942 Y99.576 E10.52045
G1 X145.673 Y100.735 E10.56002
G1 X145.391 Y101.698 E10.5934
G1 X144.724 Y104.103 E10.67641
G1 X144.1 Y106.636 E10.76317
G1 X143.757 Y108.167 E10.81536
G1 X143.512 Y109.07 E10.84648
G1 X143.26 Y109.77 E10.87122
G1 X142.852 Y110.789 E10.90773
G1 X138.966 Y120.036 E11.24134
G1 X138.616 Y120.84 E11.27051
G1 X138.2 Y121.686 E11.30186
G1 X137.57 Y122.697 E11.34148
G1 X137.077 Y123.396 E11.36993
G1 X131.504 Y131.054 E11.68494
G1 X130.984 Y131.748 E11.71379
G1 X130.411 Y132.446 E11.74382
G1 X129.734 Y133.136 E11.77598
G1 X129.344 Y133.481 E11.79329
G1 X128.864 Y133.879 E11.81403
G1 X121.846 Y139.446 E12.11197
G1 X121.195 Y139.95 E12.13936
G1 X120.457 Y140.471 E12.1694
G1 X119.646 Y140.943 E12.20061
G1 X118.548 Y141.442 E12.24073
G1 X117.728 Y141.759 E12.26997
G1 X110.148 Y144.549 E12.53861
G1 X109.525 Y144.768 E12.56058
G1 X108.626 Y145.038 E12.5918
G1 X107.742 Y145.221 E12.62182
G1 X106.782 Y145.334 E12.65397
G1 X106.255 Y145.358 E12.67152
G1 X105.156 Y145.381 E12.70808
G1 X97.53 Y145.382 E12.96172
G1 X96.811 Y145.371 E12.98564
G1 X95.874 Y145.315 E13.01686
G1 X94.953 Y145.178 E13.04783
G1 X94.466 Y145.071 E13.06441
G1 X93.374 Y144.803 E13.10181
G1 X92.815 Y144.657 E13.12103
G1 X90.367 Y144.091 E13.2046
G1 X86.955 Y143.42 E13.32025
G1 X86.447 Y143.313 E13.33752
G1 X85.545 Y143.08 E13.36851
G1 X84.98 Y142.89 E13.38833
G1 X84.297 Y142.639 E13.41253
G1 X83.634 Y142.375 E13.43627
G1 X82.769 Y141.975 E13.46797
G1 X82.277 Y141.704 E13.48665
G1 X81.696 Y141.364 E13.50904
G1 X81.129 Y141.014 E13.5312
G1 X80.385 Y140.502 E13.56124
G1 X79.875 Y140.092 E13.583
G1 X79.331 Y139.627 E13.60681
G1 X78.795 Y139.145 E13.63078
G1 X78.135 Y138.487 E13.66178
G1 X77.768 Y138.066 E13.68036
G1 X77.38 Y137.595 E13.70065
G1 X76.896 Y136.978 E13.72673
G1 X76.359 Y136.217 E13.75771
G1 X76.055 Y135.712 E13.77732
G1 X75.591 Y134.884 E13.80889
G1 X75.398 Y134.518 E13.82265
G1 X75.012 Y133.701 E13.8527
G1 X74.804 Y133.167 E13.87176
G1 X74.595 Y132.588 E13.89224
G1 X74.332 Y131.792 E13.92012
G1 X74.092 Y130.921 E13.95017
G1 X73.976 Y130.344 E13.96974
G1 X73.84 Y129.539 E13.9969
G1 X73.764 Y129.008 E14.01474
G1 X73.673 Y128.082 E14.04569
G1 X73.658 Y127.524 E14.06425
G1 X73.658 Y126.914 E14.08454
G1 X73.679 Y126.088 E14.11202
G1 X73.749 Y125.16 E14.14298
G1 X73.825 Y124.637 E14.16055
G1 X74.356 Y121.53 E14.26539
G1 X74.718 Y119.004 E14.35026
G1 X75.001 Y116.524 E14.43328
G1 X75.223 Y113.947 E14.51931
G1 X75.362 Y111.49 E14.60116
G1 X75.437 Y108.913 E14.68691
G1 X75.439 Y106.391 E14.77079
G1 X75.369 Y103.87 E14.85467
G1 X75.228 Y101.363 E14.93819
G1 X75.014 Y98.809 E15.02343
G1 X74.733 Y96.336 E15.10622
G1 X74.297 Y93.226 E15.21067
G1 X74.209 Y92.299 E15.24164
G1 X74.196 Y91.749 E15.25993
G1 X74.202 Y90.848 E15.2899
G1 X74.219 Y90.328 E15.30721
G1 X74.291 Y89.401 E15.33813
G1 X74.37 Y88.868 E15.35605
G1 X74.461 Y88.347 E15.37364
G1 X74.624 Y87.529 E15.40139
G1 X74.851 Y86.625 E15.43239
G1 X75.019 Y86.113 E15.45031
G1 X75.232 Y85.516 E15.47139
G1 X75.517 Y84.776 E15.49777
G1 X75.883 Y83.95 E15.52782
G1 X76.161 Y83.428 E15.54749
G1 X76.587 Y82.685 E15.57597
G1 X76.845 Y82.258 E15.59257
G1 X77.346 Y81.507 E15.62259
G1 X77.723 Y81.021 E15.64305
G1 X78.32 Y80.302 E15.67413
G1 X78.616 Y79.964 E15.68908
G1 X79.261 Y79.29 E15.7201
G0 F6000 X78.972 Y79.013
G1 F1200 X79.432 Y78.596 E15.74075
G1 X79.899 Y78.197 E15.76118
G1 X80.522 Y77.691 E15.78788
G1 X81.299 Y77.122 E15.81991
G1 X81.801 Y76.808 E15.8396
G1 X82.65 Y76.31 E15.87234
G1 X83.024 Y76.106 E15.88651
G1 X83.886 Y75.683 E15.91845
G1 X84.438 Y75.459 E15.93826
G1 X85.08 Y75.22 E15.96105
G1 X85.781 Y74.979 E15.9857
G1 X86.675 Y74.721 E16.01665
G1 X87.281 Y74.592 E16.03726
G1 X87.97 Y74.465 E16.06056
G1 X88.73 Y74.347 E16.08614
G1 X89.684 Y74.252 E16.11803
G1 X90.262 Y74.235 E16.13726
G1 X91.008 Y74.233 E16.16207
G1 X91.717 Y74.25 E16.18566
G1 X92.675 Y74.324 E16.21762
G1 X93.256 Y74.411 E16.23716
G1 X93.966 Y74.537 E16.26114
G1 X94.68 Y74.682 E16.28537
G1 X96.024 Y75.057 E16.33178
G1 X97.694 Y75.642 E16.39064
G1 X100.144 Y76.429 E16.47622
G1 X102.547 Y77.128 E16.55946
G1 X104.975 Y77.76 E16.64291
G1 X107.464 Y78.333 E16.72786
G1 X109.912 Y78.824 E16.8109
G1 X112.361 Y79.244 E16.89354
G1 X114.869 Y79.601 E16.9778
G1 X117.399 Y79.888 E17.06249
G1 X119.894 Y80.102 E17.14578
G1 X122.366 Y80.242 E17.22813
G1 X124.926 Y80.314 E17.31331
G1 X127.43 Y80.314 E17.39659
G1 X130.476 Y80.232 E17.49794
G1 X131.445 Y80.251 E17.53017
G1 X132.278 Y80.336 E17.55802
G1 X133.086 Y80.451 E17.58517
G1 X134.201 Y80.639 E17.62278
G1 X135.151 Y80.85 E17.65514
G1 X136.013 Y81.121 E17.6852
G1 X137.138 Y81.598 E17.72584
G1 X137.97 Y82.007 E17.75667
G1 X138.858 Y82.473 E17.79003
G1 X139.667 Y82.949 E17.82125
G1 X140.493 Y83.54 E17.85503
G1 X141.323 Y84.264 E17.89166
G1 X141.902 Y84.827 E17.91852
G1 X142.677 Y85.615 E17.95528
G1 X143.324 Y86.343 E17.98768
G1 X143.864 Y87.067 E18.01772
G1 X144.504 Y88.127 E18.0589
G1 X145.021 Y89.112 E18.0959
G1 X145.377 Y89.836 E18.12273
G1 X145.753 Y90.696 E18.15395
G1 X146.076 Y91.66 E18.18777
G1 X146.332 Y92.777 E18.22588
G1 X146.485 Y93.653 E18.25546
G1 X146.635 Y94.678 E18.28991
G1 X146.728 Y95.647 E18.32229
G1 X146.737 Y96.55 E18.35233
G1 X146.633 Y97.762 E18.39279
G1 X146.472 Y98.855 E18.42953
G1 X146.332 Y99.666 E18.4569
G1 X146.057 Y100.847 E18.49724
G1 X145.775 Y101.81 E18.53061
G1 X145.109 Y104.21 E18.61345
G1 X144.488 Y106.732 E18.69984
G1 X144.143 Y108.272 E18.75233
G1 X143.898 Y109.175 E18.78345
G1 X143.631 Y109.919 E18.80974
G1 X143.221 Y110.944 E18.84646
G1 X139.333 Y120.196 E19.18025
G1 X138.975 Y121.017 E19.21004
G1 X138.559 Y121.863 E19.24139
G1 X137.897 Y122.928 E19.2831
G1 X137.4 Y123.631 E19.31173
G1 X131.824 Y131.294 E19.62694
G1 X131.293 Y132.002 E19.65638
G1 X130.697 Y132.726 E19.68757
G1 X129.999 Y133.436 E19.72068
G1 X129.599 Y133.789 E19.73843
G1 X129.113 Y134.192 E19.75942
G1 X122.091 Y139.762 E20.05753
G1 X121.426 Y140.277 E20.08551
G1 X120.688 Y140.798 E20.11555
G1 X119.847 Y141.289 E20.14794
G1 X118.692 Y141.815 E20.19015
G1 X117.866 Y142.134 E20.2196
G1 X110.281 Y144.926 E20.48843
G1 X109.64 Y145.151 E20.51103
G1 X108.707 Y145.43 E20.54342
G1 X107.823 Y145.613 E20.57344
G1 X106.8 Y145.734 E20.6077
G1 X106.263 Y145.758 E20.62558
G1 X105.164 Y145.781 E20.66214
G1 X97.524 Y145.782 E20.91625
G1 X96.787 Y145.77 E20.94077
G1 X95.815 Y145.711 E20.97315
G1 X94.867 Y145.569 E21.00504
G1 X94.371 Y145.459 E21.02193
G1 X93.273 Y145.19 E21.05953
G1 X92.725 Y145.047 E21.07837
G1 X90.277 Y144.48 E21.16195
G1 X86.873 Y143.811 E21.27733
G1 X86.347 Y143.7 E21.29521
G1 X85.418 Y143.459 E21.32713
G1 X84.842 Y143.265 E21.34735
G1 X84.149 Y143.011 E21.3719
G1 X83.466 Y142.738 E21.39636
G1 X82.601 Y142.338 E21.42806
G1 X82.075 Y142.049 E21.44802
G1 X81.486 Y141.704 E21.47072
G1 X80.902 Y141.344 E21.49354
G1 X80.158 Y140.832 E21.52358
G1 X79.615 Y140.396 E21.54674
G1 X79.064 Y139.924 E21.57087
G1 X78.513 Y139.428 E21.59553
G1 X77.833 Y138.75 E21.62747
G1 X77.459 Y138.32 E21.64642
G1 X77.065 Y137.842 E21.66703
G1 X76.569 Y137.209 E21.69377
G1 X76.032 Y136.448 E21.72475
G1 X75.706 Y135.908 E21.74573
G1 X75.237 Y135.071 E21.77764
G1 X75.036 Y134.689 E21.792
G1 X74.65 Y133.872 E21.82205
G1 X74.428 Y133.303 E21.84237
G1 X74.215 Y132.713 E21.86323
G1 X73.946 Y131.898 E21.89178
G1 X73.706 Y131.027 E21.92182
G1 X73.582 Y130.411 E21.94272
G1 X73.444 Y129.596 E21.97022
G1 X73.366 Y129.047 E21.98866
G1 X73.273 Y128.093 E22.02054
G1 X73.258 Y127.535 E22.03911
G1 X73.258 Y126.904 E22.06009
G1 X73.28 Y126.058 E22.08824
G1 X73.353 Y125.102 E22.12013
G1 X73.431 Y124.57 E22.13801
G1 X73.96 Y121.473 E22.24251
G1 X74.322 Y118.947 E22.32739
G1 X74.602 Y116.49 E22.40963
G1 X74.825 Y113.913 E22.49567
G1 X74.962 Y111.478 E22.57678
G1 X75.037 Y108.901 E22.66253
G1 X75.039 Y106.391 E22.74601
G1 X74.969 Y103.881 E22.82953
G1 X74.829 Y101.396 E22.91231
G1 X74.616 Y98.842 E22.99755
G1 X74.337 Y96.392 E23.07957
G1 X73.899 Y93.264 E23.18462
G1 X73.809 Y92.308 E23.21656
G1 X73.796 Y91.746 E23.23525
G1 X73.802 Y90.835 E23.26555
G1 X73.82 Y90.297 E23.28346
G1 X73.895 Y89.342 E23.31532
