;FLAVOR:Marlin
;TIME:1466
;Filament used: 0.686687m
;Layer height: 0.2
;MINX:76
;MINY:93
;MINZ:0.2
;MAXX:144
;MAXY:127
;MAXZ:16
;Generated with Cura_SteamEngine 5.3.1
M82 ;absolute extrusion mode
; Ender 3 Custom Start G-code
G92 E0 ; Reset Extruder
G28 ; Home all axes
M104 S175 ; Start heating up the nozzle most of the way
M190 S60 ; Start heating the bed, wait until target temperature reached
M109 S200 ; Finish heating the nozzle
G1 Z2.0 F3000 ; Move Z Axis up little to prevent scratching of Heat Bed
G1 X0.1 Y20 Z0.3 F5000.0 ; Move to start position
G1 X0.1 Y200.0 Z0.3 F1500.0 E15 ; Draw the first line
G1 X0.4 Y200.0 Z0.3 F5000.0 ; Move to side a little
G1 X0.4 Y20 Z0.3 F1500.0 E30 ; Draw the second line
G92 E0 ; Reset Extruder
G1 Z2.0 F3000 ; Move Z Axis up little to prevent scratching of Heat Bed
G1 X5 Y20 Z0.3 F5000.0 ; Move over to prevent blob squish
G92 E0
G92 E0
G1 F1500 E-6.5
;LAYER_COUNT:80
;LAYER:0
M107
G0 F6000 X80.662 Y96.024 Z0.2
;TYPE:SKIRT
G1 F1500 E0
G1 F1200 X81.394 Y95.494 E0.03006
G1 X82.169 Y95.031 E0.06008
G1 X82.982 Y94.638 E0.09012
G1 X83.827 Y94.318 E0.12017
G1 X84.696 Y94.075 E0.15018
G1 X85.584 Y93.909 E0.18023
G1 X86.723 Y93.813 E0.21825
G1 X87.33 Y93.8 E0.23844
G1 X97.293 Y93.8 E0.56981
G1 X98.137 Y93.811 E0.59789
G1 X98.968 Y93.857 E0.62557
G1 X99.8 Y93.939 E0.65337
G1 X101.059 Y94.084 E0.69552
G1 X103.61 Y94.302 E0.78068
G1 X106.115 Y94.446 E0.86413
G1 X108.684 Y94.52 E0.94962
G1 X111.218 Y94.522 E1.0339
G1 X113.75 Y94.452 E1.11814
G1 X116.28 Y94.31 E1.20242
G1 X118.853 Y94.093 E1.28831
G1 X120.914 Y93.869 E1.35726
G1 X121.724 Y93.813 E1.38426
G1 X122.33 Y93.8 E1.40442
G1 X132.425 Y93.801 E1.74019
G1 X133.123 Y93.81 E1.7634
G1 X134.024 Y93.861 E1.79342
G1 X134.918 Y93.993 E1.82348
G1 X135.796 Y94.202 E1.85349
G1 X136.653 Y94.489 E1.88355
G1 X137.48 Y94.85 E1.91357
G1 X138.273 Y95.283 E1.94362
G1 X139.024 Y95.784 E1.97364
G1 X139.728 Y96.35 E2.00369
G1 X140.379 Y96.976 E2.03373
G1 X140.972 Y97.657 E2.06376
G1 X141.502 Y98.388 E2.09379
G1 X141.966 Y99.163 E2.12383
G1 X142.36 Y99.976 E2.15388
G1 X142.68 Y100.82 E2.1839
G1 X142.924 Y101.69 E2.21396
G1 X143.09 Y102.578 E2.244
G1 X143.187 Y103.723 E2.28222
G1 X143.2 Y104.33 E2.30242
G1 X143.199 Y115.39 E2.67027
G1 X143.19 Y116.117 E2.69446
G1 X143.139 Y117.019 E2.7245
G1 X143.008 Y117.913 E2.75456
G1 X142.799 Y118.791 E2.78458
G1 X142.513 Y119.648 E2.81462
G1 X142.152 Y120.476 E2.84467
G1 X141.72 Y121.268 E2.87467
G1 X141.219 Y122.02 E2.90473
G1 X140.653 Y122.724 E2.93477
G1 X140.028 Y123.375 E2.96479
G1 X139.347 Y123.969 E2.99484
G1 X138.616 Y124.5 E3.02489
G1 X137.842 Y124.964 E3.05491
G1 X137.029 Y125.358 E3.08496
G1 X136.185 Y125.678 E3.11498
G1 X135.315 Y125.923 E3.14504
G1 X134.428 Y126.089 E3.17505
G1 X133.277 Y126.187 E3.21348
G1 X132.67 Y126.2 E3.23367
G1 X122.063 Y126.199 E3.58646
G1 X121.366 Y126.189 E3.60964
G1 X120.523 Y126.142 E3.63773
G1 X119.23 Y126.016 E3.68093
G1 X119.099 Y126.009 E3.6853
G1 X117.526 Y125.858 E3.73786
G1 X115.014 Y125.687 E3.8216
G1 X112.446 Y125.585 E3.90708
G1 X109.945 Y125.556 E3.99027
G1 X107.38 Y125.6 E4.07559
G1 X104.813 Y125.716 E4.16106
G1 X102.33 Y125.899 E4.24387
G1 X99.936 Y126.14 E4.3239
G1 X99.201 Y126.187 E4.34839
G1 X98.594 Y126.2 E4.36858
G1 X87.561 Y126.199 E4.73554
G1 X86.863 Y126.189 E4.75876
G1 X85.961 Y126.136 E4.78881
G1 X85.068 Y126.004 E4.81884
G1 X84.19 Y125.793 E4.84887
G1 X83.334 Y125.505 E4.87891
G1 X82.507 Y125.143 E4.90894
G1 X81.715 Y124.708 E4.93899
G1 X80.964 Y124.206 E4.96904
G1 X80.261 Y123.639 E4.99907
G1 X79.611 Y123.012 E5.02911
G1 X79.019 Y122.33 E5.05915
G1 X78.489 Y121.599 E5.08918
G1 X78.027 Y120.823 E5.11922
G1 X77.634 Y120.01 E5.14925
G1 X77.316 Y119.165 E5.17928
G1 X77.073 Y118.295 E5.20933
G1 X76.908 Y117.407 E5.23937
G1 X76.813 Y116.266 E5.27745
G1 X76.8 Y115.658 E5.29767
G1 X76.801 Y104.536 E5.66759
G1 X76.81 Y103.871 E5.68971
G1 X76.862 Y102.969 E5.71976
G1 X76.994 Y102.076 E5.74979
G1 X77.204 Y101.198 E5.77981
G1 X77.491 Y100.341 E5.80987
G1 X77.853 Y99.514 E5.8399
G1 X78.286 Y98.722 E5.86992
G1 X78.788 Y97.971 E5.89997
G1 X79.355 Y97.267 E5.93003
G1 X79.981 Y96.617 E5.96005
G1 X80.662 Y96.024 E5.99008
G0 F6000 X80.399 Y95.722
G1 F1200 X81.159 Y95.17 E6.02132
G1 X81.995 Y94.671 E6.0537
G1 X82.84 Y94.264 E6.0849
G1 X83.685 Y93.944 E6.11495
G1 X84.622 Y93.682 E6.14731
G1 X85.55 Y93.51 E6.1787
G1 X86.689 Y93.414 E6.21672
G1 X87.321 Y93.4 E6.23775
G1 X97.298 Y93.4 E6.56958
G1 X98.159 Y93.412 E6.59822
G1 X99.007 Y93.459 E6.62647
G1 X99.846 Y93.542 E6.65451
G1 X101.093 Y93.685 E6.69626
G1 X103.644 Y93.904 E6.78142
G1 X106.127 Y94.046 E6.86414
G1 X108.696 Y94.12 E6.94962
G1 X111.207 Y94.122 E7.03313
G1 X113.739 Y94.052 E7.11738
G1 X116.246 Y93.912 E7.20089
G1 X118.819 Y93.694 E7.28678
G1 X120.886 Y93.47 E7.35593
G1 X121.715 Y93.413 E7.38357
G1 X122.33 Y93.4 E7.40403
G1 X132.43 Y93.401 E7.73995
G1 X133.146 Y93.411 E7.76377
G1 X134.082 Y93.465 E7.79495
G1 X134.976 Y93.597 E7.82501
G1 X135.889 Y93.813 E7.85622
G1 X136.813 Y94.122 E7.88862
G1 X137.64 Y94.483 E7.91863
G1 X138.495 Y94.95 E7.95104
G1 X139.275 Y95.472 E7.98225
G1 X139.979 Y96.038 E8.0123
G1 X140.681 Y96.713 E8.04469
G1 X141.274 Y97.394 E8.07472
G1 X141.826 Y98.153 E8.10594
G1 X142.326 Y98.989 E8.13834
G1 X142.734 Y99.834 E8.16955
G1 X143.054 Y100.678 E8.19957
G1 X143.317 Y101.616 E8.23197
G1 X143.489 Y102.544 E8.26336
G1 X143.586 Y103.689 E8.30158
G1 X143.6 Y104.33 E8.3229
G1 X143.599 Y115.395 E8.69093
G1 X143.589 Y116.14 E8.71571
G1 X143.535 Y117.077 E8.74692
G1 X143.404 Y117.971 E8.77698
G1 X143.188 Y118.884 E8.80818
G1 X142.88 Y119.808 E8.84058
G1 X142.519 Y120.636 E8.87062
G1 X142.053 Y121.49 E8.90298
G1 X141.531 Y122.271 E8.93422
G1 X140.965 Y122.975 E8.96427
G1 X140.317 Y123.652 E8.99544
G1 X139.582 Y124.293 E9.02787
G1 X138.851 Y124.824 E9.05792
G1 X138.048 Y125.307 E9.08909
G1 X137.171 Y125.732 E9.1215
G1 X136.327 Y126.052 E9.15152
G1 X135.389 Y126.316 E9.18393
G1 X134.462 Y126.488 E9.21529
G1 X133.311 Y126.586 E9.25371
G1 X132.679 Y126.6 E9.27474
G1 X122.057 Y126.599 E9.62803
G1 X121.344 Y126.588 E9.65175
G1 X120.484 Y126.54 E9.68039
G1 X119.192 Y126.414 E9.72357
G1 X119.061 Y126.407 E9.72793
G1 X117.497 Y126.257 E9.78019
G1 X114.998 Y126.087 E9.8635
G1 X112.43 Y125.985 E9.94898
G1 X109.947 Y125.956 E10.03157
G1 X107.398 Y126 E10.11636
G1 X104.831 Y126.116 E10.20183
G1 X102.363 Y126.298 E10.28414
G1 X99.962 Y126.539 E10.3644
G1 X99.21 Y126.587 E10.38946
G1 X98.594 Y126.6 E10.40995
G1 X87.555 Y126.599 E10.77711
G1 X86.84 Y126.588 E10.80089
G1 X85.903 Y126.532 E10.83211
G1 X85.01 Y126.4 E10.86214
G1 X84.062 Y126.172 E10.89457
G1 X83.206 Y125.884 E10.92461
G1 X82.314 Y125.494 E10.95699
G1 X81.522 Y125.059 E10.98704
G1 X80.742 Y124.539 E11.01822
G1 X79.983 Y123.927 E11.05065
G1 X79.333 Y123.3 E11.08069
G1 X78.695 Y122.565 E11.11306
G1 X78.145 Y121.804 E11.14429
G1 X77.683 Y121.028 E11.17433
G1 X77.26 Y120.151 E11.20671
G1 X76.931 Y119.273 E11.2379
G1 X76.68 Y118.368 E11.26913
G1 X76.509 Y117.44 E11.30052
G1 X76.413 Y116.275 E11.3394
G1 X76.4 Y115.658 E11.35992
G1 X76.401 Y104.531 E11.73001
G1 X76.411 Y103.848 E11.75273
G1 X76.466 Y102.911 E11.78395
G1 X76.598 Y102.018 E11.81397
G1 X76.815 Y101.105 E11.84518
G1 X77.112 Y100.214 E11.87642
G1 X77.502 Y99.322 E11.9088
G1 X77.953 Y98.5 E11.93998
G1 X78.476 Y97.72 E11.97122
G1 X79.043 Y97.016 E12.00128
G1 X79.718 Y96.315 E12.03365
G1 X80.399 Y95.722 E12.06369
G0 F6000 X80.136 Y95.42
G1 F1200 X80.924 Y94.846 E12.09611
G1 X81.821 Y94.311 E12.13085
G1 X82.698 Y93.89 E12.1632
G1 X83.543 Y93.57 E12.19326
G1 X84.549 Y93.289 E12.228
G1 X85.516 Y93.111 E12.2607
G1 X86.655 Y93.015 E12.29872
G1 X87.312 Y93 E12.32058
G1 X97.304 Y93 E12.65291
G1 X98.181 Y93.013 E12.68208
G1 X99.046 Y93.061 E12.7109
G1 X99.892 Y93.145 E12.73917
G1 X101.127 Y93.286 E12.78052
G1 X103.678 Y93.506 E12.86568
G1 X106.139 Y93.646 E12.94766
G1 X108.708 Y93.72 E13.03315
G1 X111.196 Y93.722 E13.1159
G1 X113.728 Y93.652 E13.20014
G1 X116.212 Y93.514 E13.28289
G1 X118.785 Y93.295 E13.36878
G1 X120.859 Y93.071 E13.43816
G1 X121.707 Y93.013 E13.46643
G1 X122.33 Y93 E13.48716
G1 X132.436 Y93.001 E13.82328
G1 X133.169 Y93.012 E13.84766
G1 X134.14 Y93.069 E13.88002
G1 X135.034 Y93.201 E13.91007
G1 X136.016 Y93.434 E13.94364
G1 X136.973 Y93.755 E13.97721
G1 X137.8 Y94.116 E14.00723
G1 X138.687 Y94.599 E14.04082
G1 X139.526 Y95.16 E14.07439
G1 X140.23 Y95.726 E14.10443
G1 X140.983 Y96.45 E14.13918
G1 X141.576 Y97.131 E14.16921
G1 X142.169 Y97.948 E14.20279
G1 X142.686 Y98.815 E14.23636
G1 X143.108 Y99.692 E14.26873
G1 X143.428 Y100.536 E14.29875
G1 X143.702 Y101.508 E14.33234
G1 X143.888 Y102.51 E14.36624
G1 X143.985 Y103.655 E14.40446
G1 X144 Y104.33 E14.42691
G1 X143.999 Y115.4 E14.7951
G1 X143.988 Y116.163 E14.82048
G1 X143.931 Y117.135 E14.85287
G1 X143.8 Y118.029 E14.88292
G1 X143.577 Y118.976 E14.91528
G1 X143.247 Y119.968 E14.95005
G1 X142.886 Y120.796 E14.98009
G1 X142.386 Y121.712 E15.0148
G1 X141.843 Y122.522 E15.04724
G1 X141.277 Y123.226 E15.07728
G1 X140.606 Y123.929 E15.1096
G1 X139.817 Y124.617 E15.14442
G1 X139.086 Y125.148 E15.17447
G1 X138.254 Y125.65 E15.20679
G1 X137.313 Y126.106 E15.24157
G1 X136.469 Y126.426 E15.27159
G1 X135.497 Y126.701 E15.30519
G1 X134.496 Y126.887 E15.33905
G1 X133.345 Y126.985 E15.37747
G1 X132.679 Y127 E15.39963
G1 X122.051 Y126.999 E15.75312
G1 X121.322 Y126.987 E15.77737
G1 X120.445 Y126.938 E15.80658
G1 X119.154 Y126.812 E15.84973
G1 X119.023 Y126.805 E15.85409
G1 X117.468 Y126.656 E15.90605
G1 X114.982 Y126.487 E15.98892
G1 X112.414 Y126.385 E16.0744
G1 X109.949 Y126.356 E16.15639
G1 X107.416 Y126.4 E16.24065
G1 X104.849 Y126.516 E16.32612
G1 X102.396 Y126.697 E16.40793
G1 X99.987 Y126.938 E16.48845
G1 X99.218 Y126.987 E16.51408
G1 X98.594 Y127 E16.53484
G1 X87.549 Y126.999 E16.9022
G1 X86.816 Y126.987 E16.92658
G1 X85.845 Y126.928 E16.95894
G1 X84.916 Y126.789 E16.99018
G1 X83.968 Y126.561 E17.02261
G1 X83.046 Y126.251 E17.05496
G1 X82.121 Y125.845 E17.08856
G1 X81.329 Y125.41 E17.11861
G1 X80.52 Y124.872 E17.15093
G1 X79.705 Y124.215 E17.18575
G1 X79.055 Y123.588 E17.21578
G1 X78.393 Y122.827 E17.24933
G1 X77.801 Y122.009 E17.28292
G1 X77.339 Y121.233 E17.31295
G1 X76.885 Y120.291 E17.34773
G1 X76.556 Y119.413 E17.37892
G1 X76.287 Y118.44 E17.4125
G1 X76.11 Y117.473 E17.44519
G1 X76.014 Y116.308 E17.48407
G1 X76 Y115.658 E17.5057
G1 X76.001 Y104.525 E17.87598
G1 X76.012 Y103.825 E17.89927
G1 X76.07 Y102.853 E17.93165
G1 X76.202 Y101.96 E17.96168
G1 X76.426 Y101.013 E17.99404
G1 X76.745 Y100.054 E18.02766
G1 X77.135 Y99.162 E18.06004
G1 X77.602 Y98.308 E18.09241
G1 X78.164 Y97.469 E18.126
G1 X78.731 Y96.765 E18.15606
G1 X79.455 Y96.013 E18.19078
G1 X80.136 Y95.42 E18.22082
G1 F1500 E11.72082
;MESH:Servo_mount.stl
G0 F6000 X89.645 Y106.151
G0 X92.147 Y109.509
;TYPE:WALL-INNER
G1 F1500 E18.22082
G1 F1200 X91.498 Y109.609 E18.24266
G1 X90.851 Y109.508 E18.26444
G1 X90.258 Y109.207 E18.28656
G1 X89.794 Y108.743 E18.30838
G1 X89.492 Y108.154 E18.3304
G1 X89.389 Y107.501 E18.35238
G1 X89.493 Y106.845 E18.37447
G1 X89.793 Y106.258 E18.3964
G1 X90.258 Y105.793 E18.41827
G1 X90.85 Y105.491 E18.44038
G1 X91.499 Y105.389 E18.46223
G1 X92.15 Y105.491 E18.48414
G1 X92.742 Y105.793 E18.50625
G1 X93.205 Y106.256 E18.52803
G1 X93.507 Y106.847 E18.5501
G1 X93.609 Y107.498 E18.57202
G1 X93.509 Y108.147 E18.59386
G1 X93.205 Y108.744 E18.61614
G1 X92.744 Y109.205 E18.63782
G1 X92.147 Y109.509 E18.66011
G1 F1500 E12.16011
G0 F6000 X91.994 Y109.634
G0 X92.85 Y109.354
G0 X92.848 Y115.219
G0 X98.324 Y115.4
G1 F1500 E18.66011
G1 F1200 X98.324 Y112.6 E18.75323
G1 X98 Y112.6 E18.76401
G1 X97.651 Y112.489 E18.77619
G1 X97.501 Y112.334 E18.78337
G1 X97.4 Y112.023 E18.79424
G1 X97.4 Y104.6 E19.04113
G1 X87.6 Y104.6 E19.36708
G1 X87.601 Y115.399 E19.72626
G1 X98.324 Y115.4 E20.08291
G0 F6000 X98.724 Y115.8
;TYPE:WALL-OUTER
G1 F1200 X98.724 Y112.2 E20.20264
G1 X98 Y112.2 E20.22672
G1 X97.883 Y112.163 E20.2308
G1 X97.8 Y112.008 E20.23665
G1 X97.8 Y104.2 E20.49635
G1 X87.2 Y104.2 E20.8489
G1 X87.201 Y115.799 E21.23469
G1 X98.724 Y115.8 E21.61795
G1 F1500 E15.11795
G0 F6000 X98.454 Y115.53
G0 X92.159 Y115.219
G0 X91.498 Y109.792
G0 X92.026 Y109.122
G1 F1500 E21.61795
G1 F1200 X91.5 Y109.205 E21.63566
G1 X90.974 Y109.122 E21.65337
G1 X90.497 Y108.88 E21.67116
G1 X90.121 Y108.504 E21.68884
G1 X89.878 Y108.03 E21.70656
G1 X89.794 Y107.5 E21.72441
G1 X89.878 Y106.97 E21.74226
G1 X90.12 Y106.497 E21.75993
G1 X90.497 Y106.12 E21.77766
G1 X90.971 Y105.878 E21.79536
G1 X91.5 Y105.794 E21.81318
G1 X92.029 Y105.878 E21.83099
G1 X92.503 Y106.12 E21.84869
G1 X92.88 Y106.497 E21.86643
G1 X93.122 Y106.974 E21.88422
G1 X93.205 Y107.5 E21.90193
G1 X93.123 Y108.025 E21.9196
G1 X92.879 Y108.504 E21.93748
G1 X92.503 Y108.88 E21.95517
G1 X92.026 Y109.122 E21.97296
G1 F1500 E15.47296
G0 F6000 X92.161 Y109.39
G0 X92.85 Y109.354
G0 X92.848 Y115.219
G0 X97.964 Y115.04
;TYPE:SKIN
G1 F1500 E21.97296
G1 F1200 X87.962 Y115.038 E22.30562
G1 X87.961 Y104.961 E22.64079
G1 X90.068 Y104.961 E22.71086
G1 F1076.2 X90.75 Y105.045 E22.73635
G1 X90.156 Y105.443 E22.76286
G1 F1200 X89.935 Y105.605 E22.77198
G1 X89.501 Y106.041 E22.79244
G1 X89.214 Y106.598 E22.81328
G1 X89.129 Y106.853 E22.82222
G1 X89.024 Y107.501 E22.84405
G1 X89.146 Y108.269 E22.86992
G1 X89.503 Y108.963 E22.89588
G1 X89.929 Y109.389 E22.91591
G1 X90.184 Y109.574 E22.92639
G1 X90.6 Y109.786 E22.94192
G1 X90.856 Y109.871 E22.95089
G1 X91.497 Y109.974 E22.97249
G1 X92.267 Y109.855 E22.9984
G1 X92.957 Y109.501 E23.02419
G1 X93.416 Y109.04 E23.04583
G1 X93.557 Y108.845 E23.05383
G1 X93.856 Y108.263 E23.0756
G1 X93.974 Y107.497 E23.10137
G1 X93.853 Y106.731 E23.12717
G1 X93.556 Y106.152 E23.14881
G1 X93.41 Y105.953 E23.15702
G1 X92.964 Y105.501 E23.17814
G1 F1165 X92.408 Y105.203 E23.19975
G1 F1103.4 X92.38 Y105.181 E23.20104
G1 F952.4 X92.13 Y105.042 E23.21303
G1 F973.6 X92.463 Y104.973 E23.22697
G1 F1165 X93.063 Y104.96 E23.24753
G1 F1200 X97.04 Y104.96 E23.3798
G1 X97.04 Y112.036 E23.61515
G1 X97.073 Y112.247 E23.62225
G1 X97.199 Y112.538 E23.6328
G1 X97.456 Y112.796 E23.64491
G1 X97.964 Y112.954 E23.66261
G1 X97.964 Y115.04 E23.73199
G1 F1500 E17.23199
G0 F6000 X97.962 Y115.299
G0 X98.152 Y112.772
G0 X97.27 Y112.214
G0 X97.228 Y104.772
G0 X90.813 Y104.8
G0 X90.889 Y105.283
G0 X90.741 Y105.051
G1 F1500 E23.73199
G1 F912.5 X91.499 Y104.993 E23.76524
G1 F932 X92.13 Y105.042 E23.79234
G1 F1500 E17.29234
G0 F6000 X92.069 Y105.376
G0 X92.854 Y105.647
G0 X92.854 Y104.8
G0 X96.839 Y105.324
G1 F1500 E23.79234
G1 F1200 X96.674 Y105.16 E23.80008
G0 F6000 X96.109 Y105.16
G1 F1200 X96.839 Y105.89 E23.83441
G0 F6000 X96.839 Y106.456
G1 F1200 X95.543 Y105.16 E23.89537
G0 F6000 X94.977 Y105.16
G1 F1200 X96.839 Y107.022 E23.98296
G0 F6000 X96.839 Y107.587
G1 F1200 X94.412 Y105.16 E24.09712
G0 F6000 X93.847 Y105.16
G1 F1200 X96.839 Y108.153 E24.23787
G0 F6000 X96.839 Y108.719
G1 F1200 X93.281 Y105.16 E24.40525
G0 F6000 X92.805 Y105.712
G0 X93.139 Y106.048
G0 X93.854 Y106.3
G1 F1200 X96.839 Y109.284 E24.54564
G0 F6000 X96.839 Y109.85
G1 F1200 X94.115 Y107.126 E24.67377
G0 F6000 X94.139 Y107.716
G1 F1200 X96.839 Y110.416 E24.80076
G0 F6000 X96.839 Y110.981
G1 F1200 X94.065 Y108.207 E24.93125
G0 F6000 X93.9 Y108.608
G1 F1200 X96.839 Y111.547 E25.06949
G0 F6000 X96.852 Y112.125
G1 F1200 X93.705 Y108.979 E25.21749
G0 F6000 X93.451 Y109.29
G1 F1200 X97.763 Y113.603 E25.42034
G0 F6000 X97.763 Y114.168
G1 F1200 X93.168 Y109.573 E25.63647
G0 F6000 X92.823 Y109.793
G1 F1200 X97.763 Y114.734 E25.86886
G0 F6000 X97.302 Y114.838
G1 F1200 X92.449 Y109.985 E26.09713
G0 F6000 X91.996 Y110.098
G1 F1200 X96.736 Y114.838 E26.32008
G0 F6000 X96.17 Y114.838
G1 F1200 X91.507 Y110.175 E26.53941
G0 F6000 X90.836 Y110.069
G1 F1200 X95.605 Y114.838 E26.76373
G0 F6000 X95.039 Y114.838
G1 F1200 X88.161 Y107.96 E27.08725
G0 F6000 X88.161 Y108.526
G1 F1200 X94.473 Y114.837 E27.38413
G0 F6000 X93.907 Y114.837
G1 F1200 X88.161 Y109.091 E27.6544
G0 F6000 X88.161 Y109.657
G1 F1200 X93.341 Y114.837 E27.89805
G0 F6000 X92.775 Y114.837
G1 F1200 X88.161 Y110.223 E28.11508
